;FLAVOR:Marlin
;TIME:9497
;Filament used: 7.63108m
;Layer height: 0.2
;MINX:97.9
;MINY:7.336
;MINZ:0.24
;MAXX:123.165
;MAXY:212.665
;MAXZ:52.69
;TARGET_MACHINE.NAME:Creality Ender-3 S1 Pro
;POSTPROCESSED
;  [PauseAtHeight]
;  [PauseAtHeight]
;  [PauseAtHeight]
;  [PauseAtHeight]
;  [PauseAtHeight]
;  [PauseAtHeight]
;  [PauseAtHeight]
;  [PauseAtHeight]
;Generated with Cura_SteamEngine 5.10.0
; Ender 3 S1 Pro Start G-code
; M413 S0 ; Disable power loss recovery
G92 E0 ; Reset Extruder

; Prep surfaces before auto home for better accuracy
M140 S60
M104 S200

G28 ; Home all axes
G1 Z10.0 F3000 ; Move Z Axis up little to prevent scratching of Heat Bed
G1 X0 Y0

M190 S60
M109 S200

G1 X0.1 Y20 Z0.3 F5000.0 ; Move to start position
G1 X0.1 Y200.0 Z0.3 F1500.0 E15 ; Draw the first line
G1 X0.4 Y200.0 Z0.3 F5000.0 ; Move to side a little
G1 X0.4 Y20 Z0.3 F1500.0 E30 ; Draw the second line
G92 E0 ; Reset Extruder
G1 Z2.0 F3000 ; Move Z Axis up little to prevent scratching of Heat Bed
G1 X5 Y20 Z0.3 F5000.0 ; Move over to prevent blob squish

M82 ;absolute extrusion mode
G92 E0
G92 E0
G1 F2400 E-0.8
;LAYER_COUNT:258
;LAYER:-6
M107
M204 S2000
G0 F9000 X97.911 Y12.672 Z0.24
M204 S500
;TYPE:SUPPORT-INTERFACE
G1 F2400 E0
G1 F1350 X97.966 Y12.268 E0.03255
G1 X98.094 Y11.704 E0.07871
G1 X98.189 Y11.42 E0.10262
G1 X98.292 Y11.155 E0.12531
G1 X98.416 Y10.892 E0.14852
G1 X98.547 Y10.659 E0.16986
G1 X98.714 Y10.4 E0.19446
G1 X98.883 Y10.171 E0.21718
G1 X99.061 Y9.957 E0.2394
G1 X99.36 Y9.638 E0.2743
G1 X99.72 Y9.346 E0.3113
G1 X99.948 Y9.181 E0.33377
G1 X100.317 Y8.952 E0.36843
G1 X100.882 Y8.695 E0.41798
G1 X101.378 Y8.542 E0.45941
G1 X101.741 Y8.478 E0.48884
G1 X101.751 Y8.466 E0.49008
G1 X102.526 Y8.4 E0.55217
G1 X117.418 Y8.4 E1.74091
G1 X117.759 Y8.416 E1.76816
G1 X117.772 Y8.404 E1.76958
G1 X118.228 Y8.463 E1.80628
G1 X118.714 Y8.567 E1.84595
G1 X119.078 Y8.688 E1.87657
G1 X119.348 Y8.796 E1.89978
G1 X119.605 Y8.917 E1.92246
G1 X119.862 Y9.06 E1.94594
G1 X120.084 Y9.202 E1.96697
G1 X120.327 Y9.382 E1.99111
G1 X120.538 Y9.56 E2.01315
G1 X120.877 Y9.878 E2.05025
G1 X121.153 Y10.218 E2.08521
G1 X121.315 Y10.447 E2.1076
G1 X121.534 Y10.793 E2.14029
G1 X121.801 Y11.384 E2.19205
G1 X121.954 Y11.867 E2.2325
G1 X122.017 Y12.24 E2.26269
G1 X122.03 Y12.249 E2.26395
G1 X122.1 Y13.015 E2.32535
G1 X122.1 Y206.916 E17.80337
G1 X122.08 Y207.26 E17.83088
G1 X122.092 Y207.273 E17.83229
G1 X122.033 Y207.725 E17.86868
G1 X121.905 Y208.285 E17.91453
G1 X121.811 Y208.576 E17.93894
G1 X121.705 Y208.843 E17.96187
G1 X121.58 Y209.103 E17.9849
G1 X121.439 Y209.356 E18.00802
G1 X121.301 Y209.578 E18.02889
G1 X121.11 Y209.835 E18.05445
G1 X120.93 Y210.048 E18.07671
G1 X120.716 Y210.273 E18.10149
G1 X120.295 Y210.639 E18.14602
G1 X120.048 Y210.816 E18.17028
G1 X119.702 Y211.035 E18.20297
G1 X119.112 Y211.301 E18.25463
G1 X118.618 Y211.458 E18.29601
G1 X118.258 Y211.517 E18.32513
G1 X118.248 Y211.529 E18.32637
G1 X117.469 Y211.6 E18.38881
G1 X102.58 Y211.6 E19.57732
G1 X102.238 Y211.58 E19.60466
G1 X102.225 Y211.593 E19.60613
G1 X101.766 Y211.533 E19.64308
G1 X101.366 Y211.452 E19.67566
G1 X100.914 Y211.306 E19.71358
G1 X100.67 Y211.212 E19.73445
G1 X100.416 Y211.092 E19.75687
G1 X100.136 Y210.935 E19.7825
G1 X99.913 Y210.796 E19.80347
G1 X99.664 Y210.613 E19.82814
G1 X99.456 Y210.437 E19.84989
G1 X99.214 Y210.207 E19.87654
G1 X99.031 Y210.009 E19.89806
G1 X98.855 Y209.793 E19.9203
G1 X98.697 Y209.573 E19.94192
G1 X98.448 Y209.172 E19.9796
G1 X98.195 Y208.613 E20.02858
G1 X98.078 Y208.238 E20.05994
G1 X97.98 Y207.826 E20.09375
G1 X97.9 Y206.977 E20.16182
G1 X97.904 Y12.956 E35.64941
G1 X97.94 Y12.7 E35.67005
G1 X97.911 Y12.672 E35.67327
M204 S2000
G0 F9000 X98.355 Y12.371
M204 S500
G1 F1350 X121.7 Y35.716 E38.30865
M204 S2000
G1 F2400 E37.50865
G0 F9000 X121.7 Y37.979
M204 S500
G1 F2400 E38.30865
G1 F1350 X98.303 Y14.582 E40.94991
M204 S2000
G1 F2400 E40.14991
G0 F9000 X98.303 Y16.845
M204 S500
G1 F2400 E40.94991
G1 F1350 X121.7 Y40.241 E43.59111
M204 S2000
G1 F2400 E42.79111
G0 F9000 X121.7 Y42.504
M204 S500
G1 F2400 E43.59111
G1 F1350 X98.303 Y19.107 E46.23236
M204 S2000
G1 F2400 E45.43236
G0 F9000 X98.303 Y21.37
M204 S500
G1 F2400 E46.23236
G1 F1350 X121.7 Y44.767 E48.87362
M204 S2000
G1 F2400 E48.07362
G0 F9000 X121.7 Y47.03
M204 S500
G1 F2400 E48.87362
G1 F1350 X98.303 Y23.633 E51.51487
M204 S2000
G1 F2400 E50.71487
G0 F9000 X98.303 Y25.896
M204 S500
G1 F2400 E51.51487
G1 F1350 X121.7 Y49.292 E54.15607
M204 S2000
G1 F2400 E53.35607
G0 F9000 X121.7 Y51.555
M204 S500
G1 F2400 E54.15607
G1 F1350 X98.303 Y28.158 E56.79733
M204 S2000
G1 F2400 E55.99733
G0 F9000 X98.303 Y30.421
M204 S500
G1 F2400 E56.79733
G1 F1350 X121.7 Y53.818 E59.43858
M204 S2000
G1 F2400 E58.63858
G0 F9000 X121.7 Y56.081
M204 S500
G1 F2400 E59.43858
G1 F1350 X98.303 Y32.684 E62.07984
M204 S2000
G1 F2400 E61.27984
G0 F9000 X98.303 Y34.947
M204 S500
G1 F2400 E62.07984
G1 F1350 X121.7 Y58.343 E64.72104
M204 S2000
G1 F2400 E63.92104
G0 F9000 X121.7 Y60.606
M204 S500
G1 F2400 E64.72104
G1 F1350 X98.303 Y37.209 E67.36229
M204 S2000
G1 F2400 E66.56229
G0 F9000 X98.303 Y39.472
M204 S500
G1 F2400 E67.36229
G1 F1350 X121.7 Y62.869 E70.00355
M204 S2000
G1 F2400 E69.20355
G0 F9000 X121.7 Y65.132
M204 S500
G1 F2400 E70.00355
G1 F1350 X98.303 Y41.735 E72.6448
M204 S2000
G1 F2400 E71.8448
G0 F9000 X98.303 Y43.998
M204 S500
G1 F2400 E72.6448
G1 F1350 X121.7 Y67.394 E75.286
M204 S2000
G1 F2400 E74.486
G0 F9000 X121.7 Y69.657
M204 S500
G1 F2400 E75.286
G1 F1350 X98.303 Y46.26 E77.92726
M204 S2000
G1 F2400 E77.12726
G0 F9000 X98.303 Y48.522
M204 S500
G1 F2400 E77.92726
G1 F1350 X121.7 Y71.92 E80.56857
M204 S2000
G1 F2400 E79.76857
G0 F9000 X121.7 Y74.183
M204 S500
G1 F2400 E80.56857
G1 F1350 X98.303 Y50.785 E83.20988
M204 S2000
G1 F2400 E82.40988
G0 F9000 X98.303 Y53.048
M204 S500
G1 F2400 E83.20988
G1 F1350 X121.7 Y76.445 E85.85114
M204 S2000
G1 F2400 E85.05114
G0 F9000 X121.7 Y78.708
M204 S500
G1 F2400 E85.85114
G1 F1350 X98.303 Y55.311 E88.49239
M204 S2000
G1 F2400 E87.69239
G0 F9000 X98.303 Y57.573
M204 S500
G1 F2400 E88.49239
G1 F1350 X121.7 Y80.971 E91.13371
M204 S2000
G1 F2400 E90.33371
G0 F9000 X121.7 Y83.234
M204 S500
G1 F2400 E91.13371
G1 F1350 X98.303 Y59.836 E93.77502
M204 S2000
G1 F2400 E92.97502
G0 F9000 X98.303 Y62.099
M204 S500
G1 F2400 E93.77502
G1 F1350 X121.7 Y85.496 E96.41627
M204 S2000
G1 F2400 E95.61627
G0 F9000 X121.7 Y87.759
M204 S500
G1 F2400 E96.41627
G1 F1350 X98.303 Y64.362 E99.05753
M204 S2000
G1 F2400 E98.25753
G0 F9000 X98.303 Y66.624
M204 S500
G1 F2400 E99.05753
G1 F1350 X121.7 Y90.022 E101.69884
M204 S2000
G1 F2400 E100.89884
G0 F9000 X121.7 Y92.285
M204 S500
G1 F2400 E101.69884
G1 F1350 X98.303 Y68.887 E104.34015
M204 S2000
G1 F2400 E103.54015
G0 F9000 X98.303 Y71.15
M204 S500
G1 F2400 E104.34015
G1 F1350 X121.7 Y94.547 E106.98141
M204 S2000
G1 F2400 E106.18141
G0 F9000 X121.7 Y96.81
M204 S500
G1 F2400 E106.98141
G1 F1350 X98.303 Y73.413 E109.62266
M204 S2000
G1 F2400 E108.82266
G0 F9000 X98.303 Y75.675
M204 S500
G1 F2400 E109.62266
G1 F1350 X121.7 Y99.073 E112.26398
M204 S2000
G1 F2400 E111.46398
G0 F9000 X121.7 Y101.335
M204 S500
G1 F2400 E112.26398
G1 F1350 X98.302 Y77.937 E114.90534
M204 S2000
G1 F2400 E114.10534
G0 F9000 X98.302 Y80.2
M204 S500
G1 F2400 E114.90534
G1 F1350 X121.7 Y103.598 E117.54671
M204 S2000
G1 F2400 E116.74671
G0 F9000 X121.7 Y105.861
M204 S500
G1 F2400 E117.54671
G1 F1350 X98.302 Y82.463 E120.18808
M204 S2000
G1 F2400 E119.38808
G0 F9000 X98.302 Y84.726
M204 S500
G1 F2400 E120.18808
G1 F1350 X121.7 Y108.124 E122.82945
M204 S2000
G1 F2400 E122.02945
G0 F9000 X121.7 Y110.386
M204 S500
G1 F2400 E122.82945
G1 F1350 X98.302 Y86.988 E125.47082
M204 S2000
G1 F2400 E124.67082
G0 F9000 X98.302 Y89.251
M204 S500
G1 F2400 E125.47082
G1 F1350 X121.7 Y112.649 E128.11219
M204 S2000
G1 F2400 E127.31219
G0 F9000 X121.7 Y114.912
M204 S500
G1 F2400 E128.11219
G1 F1350 X98.302 Y91.514 E130.75355
M204 S2000
G1 F2400 E129.95355
G0 F9000 X98.302 Y93.777
M204 S500
G1 F2400 E130.75355
G1 F1350 X121.7 Y117.175 E133.39492
M204 S2000
G1 F2400 E132.59492
G0 F9000 X121.7 Y119.437
M204 S500
G1 F2400 E133.39492
G1 F1350 X98.302 Y96.039 E136.03629
M204 S2000
G1 F2400 E135.23629
G0 F9000 X98.302 Y98.302
M204 S500
G1 F2400 E136.03629
G1 F1350 X121.7 Y121.7 E138.67766
M204 S2000
G1 F2400 E137.87766
G0 F9000 X121.7 Y123.963
M204 S500
G1 F2400 E138.67766
G1 F1350 X98.302 Y100.565 E141.31903
M204 S2000
G1 F2400 E140.51903
G0 F9000 X98.302 Y102.827
M204 S500
G1 F2400 E141.31903
G1 F1350 X121.7 Y126.226 E143.96045
M204 S2000
G1 F2400 E143.16045
G0 F9000 X121.7 Y128.488
M204 S500
G1 F2400 E143.96045
G1 F1350 X98.302 Y105.09 E146.60182
M204 S2000
G1 F2400 E145.80182
G0 F9000 X98.302 Y107.353
M204 S500
G1 F2400 E146.60182
G1 F1350 X121.7 Y130.751 E149.24319
M204 S2000
G1 F2400 E148.44319
G0 F9000 X121.7 Y133.014
M204 S500
G1 F2400 E149.24319
G1 F1350 X98.302 Y109.616 E151.88456
M204 S2000
G1 F2400 E151.08456
G0 F9000 X98.301 Y111.878
M204 S500
G1 F2400 E151.88456
G1 F1350 X121.7 Y135.277 E154.52604
M204 S2000
G1 F2400 E153.72604
G0 F9000 X121.7 Y137.539
M204 S500
G1 F2400 E154.52604
G1 F1350 X98.301 Y114.14 E157.16752
M204 S2000
G1 F2400 E156.36752
G0 F9000 X98.301 Y116.403
M204 S500
G1 F2400 E157.16752
G1 F1350 X121.7 Y139.802 E159.809
M204 S2000
G1 F2400 E159.009
G0 F9000 X121.7 Y142.065
M204 S500
G1 F2400 E159.809
G1 F1350 X98.301 Y118.666 E162.45048
M204 S2000
G1 F2400 E161.65048
G0 F9000 X98.301 Y120.929
M204 S500
G1 F2400 E162.45048
G1 F1350 X121.7 Y144.328 E165.09197
M204 S2000
G1 F2400 E164.29197
G0 F9000 X121.7 Y146.59
M204 S500
G1 F2400 E165.09197
G1 F1350 X98.301 Y123.191 E167.73345
M204 S2000
G1 F2400 E166.93345
G0 F9000 X98.301 Y125.454
M204 S500
G1 F2400 E167.73345
G1 F1350 X121.7 Y148.853 E170.37493
M204 S2000
G1 F2400 E169.57493
G0 F9000 X121.7 Y151.116
M204 S500
G1 F2400 E170.37493
G1 F1350 X98.301 Y127.717 E173.01641
M204 S2000
G1 F2400 E172.21641
G0 F9000 X98.301 Y129.98
M204 S500
G1 F2400 E173.01641
G1 F1350 X121.7 Y153.379 E175.65789
M204 S2000
G1 F2400 E174.85789
G0 F9000 X121.7 Y155.641
M204 S500
G1 F2400 E175.65789
G1 F1350 X98.301 Y132.242 E178.29937
M204 S2000
G1 F2400 E177.49937
G0 F9000 X98.301 Y134.505
M204 S500
G1 F2400 E178.29937
G1 F1350 X121.7 Y157.904 E180.94085
M204 S2000
G1 F2400 E180.14085
G0 F9000 X121.7 Y160.167
M204 S500
G1 F2400 E180.94085
G1 F1350 X98.301 Y136.768 E183.58233
M204 S2000
G1 F2400 E182.78233
G0 F9000 X98.301 Y139.031
M204 S500
G1 F2400 E183.58233
G1 F1350 X121.7 Y162.429 E186.22376
M204 S2000
G1 F2400 E185.42376
G0 F9000 X121.7 Y164.692
M204 S500
G1 F2400 E186.22376
G1 F1350 X98.301 Y141.293 E188.86524
M204 S2000
G1 F2400 E188.06524
G0 F9000 X98.301 Y143.555
M204 S500
G1 F2400 E188.86524
G1 F1350 X121.7 Y166.955 E191.50678
M204 S2000
G1 F2400 E190.70678
G0 F9000 X121.7 Y169.218
M204 S500
G1 F2400 E191.50678
G1 F1350 X98.301 Y145.818 E194.14832
M204 S2000
G1 F2400 E193.34832
G0 F9000 X98.301 Y148.081
M204 S500
G1 F2400 E194.14832
G1 F1350 X121.7 Y171.48 E196.7898
M204 S2000
G1 F2400 E195.9898
G0 F9000 X121.7 Y173.743
M204 S500
G1 F2400 E196.7898
G1 F1350 X98.301 Y150.344 E199.43128
M204 S2000
G1 F2400 E198.63128
G0 F9000 X98.301 Y152.606
M204 S500
G1 F2400 E199.43128
G1 F1350 X121.7 Y176.006 E202.07282
M204 S2000
G1 F2400 E201.27282
G0 F9000 X121.7 Y178.269
M204 S500
G1 F2400 E202.07282
G1 F1350 X98.301 Y154.869 E204.71435
M204 S2000
G1 F2400 E203.91435
G0 F9000 X98.301 Y157.132
M204 S500
G1 F2400 E204.71435
G1 F1350 X121.7 Y180.531 E207.35584
M204 S2000
G1 F2400 E206.55584
G0 F9000 X121.7 Y182.794
M204 S500
G1 F2400 E207.35584
G1 F1350 X98.301 Y159.395 E209.99732
M204 S2000
G1 F2400 E209.19732
G0 F9000 X98.301 Y161.657
M204 S500
G1 F2400 E209.99732
G1 F1350 X121.7 Y185.057 E212.63885
M204 S2000
G1 F2400 E211.83885
G0 F9000 X121.7 Y187.32
M204 S500
G1 F2400 E212.63885
G1 F1350 X98.301 Y163.92 E215.28039
M204 S2000
G1 F2400 E214.48039
G0 F9000 X98.301 Y166.183
M204 S500
G1 F2400 E215.28039
G1 F1350 X121.7 Y189.582 E217.92187
M204 S2000
G1 F2400 E217.12187
G0 F9000 X121.7 Y191.845
M204 S500
G1 F2400 E217.92187
G1 F1350 X98.301 Y168.446 E220.56336
M204 S2000
G1 F2400 E219.76336
G0 F9000 X98.301 Y170.708
M204 S500
G1 F2400 E220.56336
G1 F1350 X121.7 Y194.108 E223.20489
M204 S2000
G1 F2400 E222.40489
G0 F9000 X121.7 Y196.371
M204 S500
G1 F2400 E223.20489
G1 F1350 X98.301 Y172.971 E225.84643
M204 S2000
G1 F2400 E225.04643
G0 F9000 X98.3 Y175.233
M204 S500
G1 F2400 E225.84643
G1 F1350 X121.7 Y198.633 E228.48803
M204 S2000
G1 F2400 E227.68803
G0 F9000 X121.7 Y200.896
M204 S500
G1 F2400 E228.48803
G1 F1350 X98.3 Y177.496 E231.12962
M204 S2000
G1 F2400 E230.32962
G0 F9000 X98.3 Y179.759
M204 S500
G1 F2400 E231.12962
G1 F1350 X121.7 Y203.159 E233.77121
M204 S2000
G1 F2400 E232.97121
G0 F9000 X121.7 Y205.422
M204 S500
G1 F2400 E233.77121
G1 F1350 X98.3 Y182.021 E236.41286
M204 S2000
G1 F2400 E235.61286
G0 F9000 X98.3 Y184.284
M204 S500
G1 F2400 E236.41286
G1 F1350 X121.643 Y207.627 E239.04802
M204 S2000
G1 F2400 E238.24802
G0 F9000 X121.021 Y209.268
M204 S500
G1 F2400 E239.04802
G1 F1350 X98.3 Y186.547 E241.61297
M204 S2000
G1 F2400 E240.81297
G0 F9000 X98.3 Y188.81
M204 S500
G1 F2400 E241.61297
G1 F1350 X119.911 Y210.421 E244.0526
M204 S2000
G1 F2400 E243.2526
G0 F9000 X118.327 Y211.1
M204 S500
G1 F2400 E244.0526
G1 F1350 X98.3 Y191.072 E246.31348
M204 S2000
G1 F2400 E245.51348
G0 F9000 X98.3 Y193.335
M204 S500
G1 F2400 E246.31348
G1 F1350 X116.164 Y211.199 E248.33012
M204 S2000
G1 F2400 E247.53012
G0 F9000 X113.901 Y211.199
M204 S500
G1 F2400 E248.33012
G1 F1350 X98.3 Y195.598 E250.0913
M204 S2000
G1 F2400 E249.2913
G0 F9000 X98.3 Y197.86
M204 S500
G1 F2400 E250.0913
G1 F1350 X111.639 Y211.199 E251.59712
M204 S2000
G1 F2400 E250.79712
G0 F9000 X109.376 Y211.199
M204 S500
G1 F2400 E251.59712
G1 F1350 X98.3 Y200.123 E252.84747
M204 S2000
G1 F2400 E252.04747
G0 F9000 X98.3 Y202.386
M204 S500
G1 F2400 E252.84747
G1 F1350 X107.113 Y211.199 E253.84236
M204 S2000
G1 F2400 E253.04236
G0 F9000 X104.851 Y211.199
M204 S500
G1 F2400 E253.84236
G1 F1350 X98.3 Y204.649 E254.58184
M204 S2000
G1 F2400 E253.78184
G0 F9000 X98.3 Y206.911
M204 S500
G1 F2400 E254.58184
G1 F1350 X102.587 Y211.199 E255.06585
M204 S2000
G1 F2400 E254.26585
G0 F9000 X102.587 Y212.665
G0 X117.701 Y212.648
G0 X119.033 Y212.445
G0 X120.052 Y212.048
G0 X120.958 Y211.476
G0 X121.748 Y210.735
G0 X122.373 Y209.873
G0 X122.831 Y208.89
G0 X123.09 Y207.863
G0 X123.132 Y207.344
G0 X123.165 Y33.453
G0 X121.7 Y33.453
M204 S500
G1 F2400 E255.06585
G1 F1350 X98.977 Y10.73 E257.63102
M204 S2000
G1 F2400 E256.83102
G0 F9000 X100.085 Y9.576
M204 S500
G1 F2400 E257.63102
G1 F1350 X121.7 Y31.19 E260.07105
M204 S2000
G1 F2400 E259.27105
G0 F9000 X121.7 Y28.928
M204 S500
G1 F2400 E260.07105
G1 F1350 X101.669 Y8.897 E262.33232
M204 S2000
G1 F2400 E261.53232
G0 F9000 X103.835 Y8.8
M204 S500
G1 F2400 E262.33232
G1 F1350 X121.7 Y26.665 E264.34908
M204 S2000
G1 F2400 E263.54908
G0 F9000 X121.7 Y24.402
M204 S500
G1 F2400 E264.34908
G1 F1350 X106.098 Y8.8 E266.11037
M204 S2000
G1 F2400 E265.31037
G0 F9000 X108.361 Y8.8
M204 S500
G1 F2400 E266.11037
G1 F1350 X121.7 Y22.14 E267.61624
M204 S2000
G1 F2400 E266.81624
G0 F9000 X121.7 Y19.877
M204 S500
G1 F2400 E267.61624
G1 F1350 X110.623 Y8.8 E268.86671
M204 S2000
G1 F2400 E268.06671
G0 F9000 X112.886 Y8.8
M204 S500
G1 F2400 E268.86671
G1 F1350 X121.7 Y17.614 E269.86171
M204 S2000
G1 F2400 E269.06171
G0 F9000 X121.7 Y15.351
M204 S500
G1 F2400 E269.86171
G1 F1350 X115.149 Y8.8 E270.60125
M204 S2000
G1 F2400 E269.80125
G0 F9000 X117.412 Y8.801
M204 S500
G1 F2400 E270.60125
G1 F1350 X121.7 Y13.089 E271.08531
M104 S200
M204 S2000
G1 F2400 E270.28531
G0 F300 X121.7 Y13.089 Z0.54
G0 F9000 X123.148 Y12.799
G0 X122.945 Y11.467
G0 X122.548 Y10.448
G0 X121.976 Y9.542
G0 X121.222 Y8.743
G0 X120.373 Y8.127
G0 X119.39 Y7.669
G0 X118.363 Y7.41
G0 X117.447 Y7.336
G0 X102.299 Y7.352
G0 X101.267 Y7.48
G0 X101.112 Y9.045
;TIME_ELAPSED:181.482523
;LAYER:-5
M204 S500
;TYPE:SUPPORT
G1 F2400 E271.08531
G1 F1350 X100.858 Y9.144 E271.11251
