;FLAVOR:Marlin
;TIME:9592
;Filament used: 7.91309m
;Layer height: 0.2
;MINX:66.08
;MINY:69.102
;MINZ:0.24
;MAXX:153.908
;MAXY:151.118
;MAXZ:9.09
;TARGET_MACHINE.NAME:Creality Ender-3 S1 Pro
;POSTPROCESSED
;  [PauseAtHeight]
;  [PauseAtHeight]
;  [PauseAtHeight]
;  [PauseAtHeight]
;  [PauseAtHeight]
;  [PauseAtHeight]
;  [PauseAtHeight]
;  [PauseAtHeight]
;Generated with Cura_SteamEngine 5.10.0
; Ender 3 S1 Pro Start G-code
; M413 S0 ; Disable power loss recovery
G92 E0 ; Reset Extruder

; Prep surfaces before auto home for better accuracy
M140 S60
M104 S200

G28 ; Home all axes
G1 Z10.0 F3000 ; Move Z Axis up little to prevent scratching of Heat Bed
G1 X0 Y0

M190 S60
M109 S200

G1 X0.1 Y20 Z0.3 F5000.0 ; Move to start position
G1 X0.1 Y200.0 Z0.3 F1500.0 E15 ; Draw the first line
G1 X0.4 Y200.0 Z0.3 F5000.0 ; Move to side a little
G1 X0.4 Y20 Z0.3 F1500.0 E30 ; Draw the second line
G92 E0 ; Reset Extruder
G1 Z2.0 F3000 ; Move Z Axis up little to prevent scratching of Heat Bed
G1 X5 Y20 Z0.3 F5000.0 ; Move over to prevent blob squish

M82 ;absolute extrusion mode
G92 E0
G92 E0
G1 F2400 E-0.8
;LAYER_COUNT:40
;LAYER:-6
M107
M204 S2000
G0 F9000 X68.622 Y71.167 Z0.24
M204 S500
;TYPE:SUPPORT-INTERFACE
G1 F2400 E0
G1 F1350 X68.962 Y70.891 E0.03496
G1 X69.191 Y70.729 E0.05735
G1 X69.537 Y70.51 E0.09004
G1 X70.128 Y70.243 E0.1418
G1 X70.622 Y70.086 E0.18318
G1 X70.982 Y70.027 E0.2123
G1 X70.992 Y70.015 E0.21355
G1 X71.771 Y69.944 E0.27599
G1 X99.688 Y69.944 E2.50444
G1 X100.027 Y69.964 E2.53155
G1 X100.04 Y69.952 E2.53296
G1 X100.496 Y70.011 E2.56967
G1 X100.988 Y70.115 E2.60981
G1 X101.346 Y70.232 E2.63987
G1 X101.618 Y70.343 E2.66332
G1 X101.872 Y70.464 E2.68578
G1 X102.132 Y70.609 E2.70954
G1 X102.354 Y70.747 E2.73041
G1 X102.597 Y70.927 E2.75455
G1 X102.81 Y71.104 E2.77666
G1 X103.134 Y71.413 E2.8124
G1 X103.411 Y71.749 E2.84716
G1 X103.847 Y72.354 E2.90668
G1 X104.296 Y72.85 E2.96009
G1 X104.841 Y73.324 E3.01775
G1 X105.371 Y73.675 E3.06849
G1 X105.986 Y73.983 E3.12339
G1 X106.284 Y74.099 E3.14892
G1 X106.843 Y74.285 E3.19595
G1 X107.104 Y74.388 E3.21834
G1 X108.02 Y74.822 E3.29926
G1 X108.687 Y75.036 E3.35517
G1 X109.292 Y75.151 E3.40433
G1 X110.004 Y75.196 E3.46128
G1 X110.678 Y75.156 E3.51517
G1 X111.376 Y75.02 E3.57194
G1 X112.013 Y74.809 E3.6255
G1 X112.962 Y74.356 E3.70945
G1 X113.264 Y74.241 E3.73524
G1 X113.281 Y74.255 E3.737
G1 X114.188 Y73.908 E3.81452
G1 X114.792 Y73.579 E3.86942
G1 X115.316 Y73.204 E3.92086
G1 X115.847 Y72.706 E3.97897
G1 X116.247 Y72.23 E4.0286
G1 X116.602 Y71.728 E4.07768
G1 X116.804 Y71.486 E4.10284
G1 X116.993 Y71.286 E4.12481
G1 X117.198 Y71.099 E4.14696
G1 X117.464 Y70.882 E4.17436
G1 X117.683 Y70.725 E4.19587
G1 X117.938 Y70.566 E4.21986
G1 X118.359 Y70.338 E4.25807
G1 X118.37 Y70.345 E4.25911
G1 X118.716 Y70.211 E4.28873
G1 X119.019 Y70.118 E4.31403
G1 X119.411 Y70.02 E4.34629
G1 X120.254 Y69.944 E4.41385
G1 X148.172 Y69.944 E6.64239
G1 X148.515 Y69.964 E6.66981
G1 X148.528 Y69.952 E6.67123
G1 X148.984 Y70.011 E6.70793
G1 X149.472 Y70.115 E6.74776
G1 X149.834 Y70.232 E6.77813
G1 X150.102 Y70.343 E6.80128
G1 X150.361 Y70.465 E6.82413
G1 X150.62 Y70.609 E6.84779
G1 X150.842 Y70.747 E6.86866
G1 X151.083 Y70.926 E6.89262
G1 X151.292 Y71.102 E6.91443
G1 X151.638 Y71.433 E6.95265
G1 X151.909 Y71.766 E6.98692
G1 X152.071 Y71.995 E7.00931
G1 X152.29 Y72.341 E7.042
G1 X152.557 Y72.931 E7.0937
G1 X152.71 Y73.424 E7.1349
G1 X152.791 Y73.871 E7.17116
G1 X152.856 Y74.563 E7.22665
G1 X152.856 Y145.372 E12.87893
G1 X152.818 Y146.014 E12.93026
G1 X152.737 Y146.442 E12.96503
G1 X152.663 Y146.737 E12.98931
G1 X152.568 Y147.03 E13.0139
G1 X152.461 Y147.29 E13.03634
G1 X152.335 Y147.557 E13.05991
G1 X152.197 Y147.808 E13.08277
G1 X151.935 Y148.204 E13.12068
G1 X151.684 Y148.502 E13.15178
G1 X151.47 Y148.73 E13.17674
G1 X151.269 Y148.913 E13.19844
G1 X151.055 Y149.091 E13.22066
G1 X150.832 Y149.251 E13.24256
G1 X150.438 Y149.498 E13.27968
G1 X149.869 Y149.757 E13.32959
G1 X149.374 Y149.91 E13.37095
G1 X149.004 Y149.981 E13.40102
G1 X148.225 Y150.052 E13.46346
G1 X120.306 Y150.052 E15.69208
G1 X119.971 Y150.036 E15.71885
G1 X119.961 Y150.046 E15.71998
G1 X119.498 Y149.985 E15.75726
G1 X119.096 Y149.903 E15.79001
G1 X118.644 Y149.763 E15.82778
G1 X118.406 Y149.665 E15.84832
G1 X118.146 Y149.543 E15.87125
G1 X117.868 Y149.391 E15.89654
G1 X117.647 Y149.249 E15.91751
G1 X117.396 Y149.065 E15.94235
G1 X117.186 Y148.888 E15.96427
G1 X116.946 Y148.663 E15.99054
G1 X116.764 Y148.463 E16.01212
G1 X116.586 Y148.244 E16.03465
G1 X116.156 Y147.652 E16.09305
G1 X115.687 Y147.128 E16.14919
G1 X115.136 Y146.657 E16.20705
G1 X114.615 Y146.315 E16.2568
G1 X114 Y146.008 E16.31167
G1 X113.603 Y145.86 E16.34549
G1 X113.149 Y145.711 E16.38363
G1 X112.893 Y145.609 E16.40563
G1 X111.977 Y145.174 E16.48657
G1 X111.309 Y144.96 E16.54257
G1 X110.703 Y144.845 E16.5918
G1 X109.992 Y144.8 E16.64867
G1 X109.315 Y144.844 E16.70283
G1 X108.652 Y144.968 E16.75667
G1 X107.997 Y145.183 E16.8117
G1 X107.033 Y145.64 E16.89686
G1 X106.727 Y145.76 E16.9231
G1 X106.71 Y145.747 E16.9248
G1 X105.813 Y146.088 E17.00141
G1 X105.231 Y146.401 E17.05416
G1 X104.678 Y146.799 E17.10854
G1 X104.149 Y147.29 E17.16616
G1 X103.749 Y147.766 E17.21579
G1 X103.323 Y148.368 E17.27466
G1 X102.873 Y148.847 E17.32712
G1 X102.328 Y149.264 E17.3819
G1 X102.054 Y149.434 E17.40764
G1 X101.57 Y149.698 E17.45164
G1 X100.717 Y149.965 E17.52299
G1 X99.746 Y150.052 E17.60081
G1 X71.822 Y150.052 E19.82983
G1 X71.483 Y150.036 E19.85692
G1 X71.473 Y150.046 E19.85805
G1 X71.01 Y149.985 E19.89532
G1 X70.608 Y149.904 E19.92806
G1 X70.159 Y149.763 E19.96562
G1 X69.917 Y149.665 E19.98647
G1 X69.658 Y149.543 E20.00932
G1 X69.38 Y149.391 E20.03461
G1 X69.159 Y149.249 E20.05558
G1 X68.908 Y149.065 E20.08042
G1 X68.698 Y148.888 E20.10235
G1 X68.458 Y148.663 E20.12861
G1 X68.276 Y148.463 E20.15019
G1 X68.099 Y148.246 E20.17255
G1 X67.922 Y147.994 E20.19713
G1 X67.774 Y147.757 E20.21943
G1 X67.491 Y147.239 E20.26655
G1 X67.322 Y146.688 E20.31255
G1 X67.208 Y146.238 E20.34961
G1 X67.207 Y146.136 E20.35775
G1 X67.144 Y145.332 E20.42213
G1 X67.148 Y74.521 E26.07457
G1 X67.195 Y74.314 E26.09151
G1 X67.154 Y74.111 E26.10804
G1 X67.259 Y73.555 E26.15321
G1 X67.332 Y73.266 E26.177
G1 X67.536 Y72.699 E26.22511
G1 X67.66 Y72.441 E26.24795
G1 X67.791 Y72.207 E26.26936
G1 X67.959 Y71.947 E26.29407
G1 X68.127 Y71.716 E26.31687
G1 X68.304 Y71.506 E26.3388
G1 X68.622 Y71.167 E26.3759
M204 S2000
G0 F9000 X69.062 Y71.325
M204 S500
G1 F1350 X147.389 Y149.651 E35.21807
M204 S2000
G1 F2400 E34.41807
G0 F9000 X149.463 Y149.463
M204 S500
G1 F2400 E35.21807
G1 F1350 X70.534 Y70.534 E44.12826
M204 S2000
G1 F2400 E43.32826
G0 F9000 X72.606 Y70.344
M204 S500
G1 F2400 E44.12826
G1 F1350 X150.934 Y148.671 E52.97054
M204 S2000
G1 F2400 E52.17054
G0 F9000 X151.952 Y147.426
M204 S500
G1 F2400 E52.97054
G1 F1350 X74.869 Y70.344 E61.67228
M204 S2000
G1 F2400 E60.87228
G0 F9000 X77.132 Y70.344
M204 S500
G1 F2400 E61.67228
G1 F1350 X152.439 Y145.651 E70.17359
M204 S2000
G1 F2400 E69.37359
G0 F9000 X152.456 Y143.405
M204 S500
G1 F2400 E70.17359
G1 F1350 X79.395 Y70.344 E78.42134
M204 S2000
G1 F2400 E77.62134
G0 F9000 X81.657 Y70.344
M204 S500
G1 F2400 E78.42134
G1 F1350 X152.456 Y141.143 E86.41375
M204 S2000
G1 F2400 E85.61375
G0 F9000 X152.456 Y138.88
M204 S500
G1 F2400 E86.41375
G1 F1350 X83.92 Y70.344 E94.15068
M204 S2000
G1 F2400 E93.35068
G0 F9000 X86.183 Y70.344
M204 S500
G1 F2400 E94.15068
G1 F1350 X152.456 Y136.617 E101.63215
M204 S2000
G1 F2400 E100.83215
G0 F9000 X152.456 Y134.355
M204 S500
G1 F2400 E101.63215
G1 F1350 X88.446 Y70.344 E108.85821
M204 S2000
G1 F2400 E108.05821
G0 F9000 X90.708 Y70.344
M204 S500
G1 F2400 E108.85821
G1 F1350 X152.456 Y132.092 E115.82886
M204 S2000
G1 F2400 E115.02886
G0 F9000 X152.456 Y129.829
M204 S500
G1 F2400 E115.82886
G1 F1350 X92.971 Y70.344 E122.54404
M204 S2000
G1 F2400 E121.74404
G0 F9000 X95.234 Y70.344
M204 S500
G1 F2400 E122.54404
G1 F1350 X152.456 Y127.566 E129.00375
M204 S2000
G1 F2400 E128.20375
G0 F9000 X152.456 Y125.304
M204 S500
G1 F2400 E129.00375
G1 F1350 X97.497 Y70.344 E135.20806
M204 S2000
G1 F2400 E134.40806
G0 F9000 X99.765 Y70.349
M204 S500
G1 F2400 E135.20806
G1 F1350 X152.456 Y123.041 E141.15633
M204 S2000
G1 F2400 E140.35633
G0 F9000 X152.456 Y120.778
M204 S500
G1 F2400 E141.15633
G1 F1350 X106.156 Y74.477 E146.38313
M204 S2000
G1 F2400 E145.58313
G0 F9000 X109.507 Y75.566
M204 S500
G1 F2400 E146.38313
G1 F1350 X152.456 Y118.515 E151.23158
M204 S2000
G1 F2400 E150.43158
G0 F9000 X152.456 Y116.253
M204 S500
G1 F2400 E151.23158
G1 F1350 X111.579 Y75.375 E155.84619
M204 S2000
G1 F2400 E155.04619
G0 F9000 X113.172 Y74.705
M204 S500
G1 F2400 E155.84619
G1 F1350 X152.456 Y113.99 E160.28096
M204 S2000
G1 F2400 E159.48096
G0 F9000 X152.456 Y111.727
M204 S500
G1 F2400 E160.28096
G1 F1350 X114.773 Y74.044 E164.53494
M204 S2000
G1 F2400 E163.73494
G0 F9000 X116.055 Y73.063
M204 S500
G1 F2400 E164.53494
G1 F1350 X152.456 Y109.464 E168.6442
M204 S2000
G1 F2400 E167.8442
G0 F9000 X152.456 Y107.202
M204 S500
G1 F2400 E168.6442
G1 F1350 X117.059 Y71.804 E172.64018
M204 S2000
G1 F2400 E171.84018
G0 F9000 X118.328 Y70.81
M204 S500
G1 F2400 E172.64018
G1 F1350 X152.456 Y104.939 E176.4929
M204 S2000
G1 F2400 E175.6929
G0 F9000 X152.456 Y102.676
M204 S500
G1 F2400 E176.4929
G1 F1350 X120.137 Y70.357 E180.14135
M204 S2000
G1 F2400 E179.34135
G0 F9000 X122.387 Y70.344
M204 S500
G1 F2400 E180.14135
G1 F1350 X152.456 Y100.413 E183.5358
M204 S2000
G1 F2400 E182.7358
G0 F9000 X152.456 Y98.151
M204 S500
G1 F2400 E183.5358
G1 F1350 X124.65 Y70.344 E186.67483
M204 S2000
G1 F2400 E185.87483
G0 F9000 X126.913 Y70.344
M204 S500
G1 F2400 E186.67483
G1 F1350 X152.456 Y95.888 E189.55841
M204 S2000
G1 F2400 E188.75841
G0 F9000 X152.456 Y93.625
M204 S500
G1 F2400 E189.55841
G1 F1350 X129.176 Y70.344 E192.18651
M204 S2000
G1 F2400 E191.38651
G0 F9000 X131.438 Y70.344
M204 S500
G1 F2400 E192.18651
G1 F1350 X152.456 Y91.362 E194.5592
M204 S2000
G1 F2400 E193.7592
G0 F9000 X152.456 Y89.1
M204 S500
G1 F2400 E194.5592
G1 F1350 X133.701 Y70.344 E196.67649
M204 S2000
G1 F2400 E195.87649
G0 F9000 X135.964 Y70.344
M204 S500
G1 F2400 E196.67649
G1 F1350 X152.456 Y86.837 E198.5383
M204 S2000
G1 F2400 E197.7383
G0 F9000 X152.456 Y84.574
M204 S500
G1 F2400 E198.5383
G1 F1350 X138.227 Y70.344 E200.14465
M204 S2000
G1 F2400 E199.34465
G0 F9000 X140.489 Y70.344
M204 S500
G1 F2400 E200.14465
G1 F1350 X152.456 Y82.311 E201.49559
M204 S2000
G1 F2400 E200.69559
G0 F9000 X152.456 Y80.049
M204 S500
G1 F2400 E201.49559
G1 F1350 X142.752 Y70.344 E202.59112
M204 S2000
G1 F2400 E201.79112
G0 F9000 X145.015 Y70.344
M204 S500
G1 F2400 E202.59112
G1 F1350 X152.456 Y77.786 E203.43118
M204 S2000
G1 F2400 E202.63118
G0 F9000 X152.456 Y75.523
M204 S500
G1 F2400 E203.43118
G1 F1350 X147.278 Y70.344 E204.01577
M204 S2000
G1 F2400 E203.21577
G0 F9000 X149.88 Y70.685
M204 S500
G1 F2400 E204.01577
G1 F1350 X152.112 Y72.916 E204.26768
M204 S2000
G1 F2400 E203.46768
G0 F9000 X153.704 Y73.023
G0 X153.908 Y74.384
G0 X153.887 Y145.987
G0 X153.674 Y147.076
G0 X153.279 Y148.056
G0 X152.698 Y148.955
G0 X151.959 Y149.728
G0 X151.076 Y150.357
G0 X150.111 Y150.797
G0 X149.012 Y151.051
G0 X148.528 Y151.088
G0 X145.126 Y151.118
G0 X145.126 Y149.651
M204 S500
G1 F2400 E204.26768
G1 F1350 X68.043 Y72.568 E212.96948
M204 S2000
G1 F2400 E212.16948
G0 F9000 X67.589 Y74.377
M204 S500
G1 F2400 E212.96948
G1 F1350 X142.863 Y149.651 E221.46706
M204 S2000
G1 F2400 E220.66706
G0 F9000 X140.6 Y149.651
M204 S500
G1 F2400 E221.46706
G1 F1350 X67.547 Y76.598 E229.71391
M204 S2000
G1 F2400 E228.91391
G0 F9000 X67.547 Y78.861
M204 S500
G1 F2400 E229.71391
G1 F1350 X138.338 Y149.651 E237.70535
M204 S2000
G1 F2400 E236.90535
G0 F9000 X136.075 Y149.651
M204 S500
G1 F2400 E237.70535
G1 F1350 X67.547 Y81.124 E245.44133
M204 S2000
G1 F2400 E244.64133
G0 F9000 X67.547 Y83.386
M204 S500
G1 F2400 E245.44133
G1 F1350 X133.812 Y149.651 E252.9219
M204 S2000
G1 F2400 E252.1219
G0 F9000 X131.549 Y149.651
M204 S500
G1 F2400 E252.9219
G1 F1350 X67.547 Y85.649 E260.147
M204 S2000
G1 F2400 E259.347
G0 F9000 X67.547 Y87.912
M204 S500
G1 F2400 E260.147
G1 F1350 X129.287 Y149.651 E267.11668
M204 S2000
G1 F2400 E266.31668
G0 F9000 X127.024 Y149.651
M204 S500
G1 F2400 E267.11668
G1 F1350 X67.546 Y90.174 E273.83102
M204 S2000
G1 F2400 E273.03102
G0 F9000 X67.546 Y92.437
M204 S500
G1 F2400 E273.83102
G1 F1350 X124.761 Y149.651 E280.28989
M204 S2000
G1 F2400 E279.48989
G0 F9000 X122.498 Y149.651
M204 S500
G1 F2400 E280.28989
G1 F1350 X67.546 Y94.699 E286.49334
M204 S2000
G1 F2400 E285.69334
G0 F9000 X67.546 Y96.962
M204 S500
G1 F2400 E286.49334
G1 F1350 X120.231 Y149.647 E292.44088
M204 S2000
G1 F2400 E291.64088
G0 F9000 X119.73 Y151.086
G0 X118.606 Y150.871
G0 X117.627 Y150.474
G0 X116.804 Y149.941
G0 X113.565 Y146.983
G0 X113.846 Y145.524
M204 S500
G1 F2400 E292.44088
G1 F1350 X67.546 Y99.225 E297.66757
M204 S2000
G1 F2400 E296.86757
G0 F9000 X67.546 Y101.488
M204 S500
G1 F2400 E297.66757
G1 F1350 X110.491 Y144.432 E302.51551
M204 S2000
G1 F2400 E301.71551
G0 F9000 X108.418 Y144.622
M204 S500
G1 F2400 E302.51551
G1 F1350 X67.546 Y103.75 E307.1295
M204 S2000
G1 F2400 E306.3295
G0 F9000 X67.546 Y106.012
M204 S500
G1 F2400 E307.1295
G1 F1350 X106.825 Y145.292 E311.56371
M204 S2000
G1 F2400 E310.76371
G0 F9000 X105.222 Y145.952
M204 S500
G1 F2400 E311.56371
G1 F1350 X67.546 Y108.275 E315.81696
M204 S2000
G1 F2400 E315.01696
G0 F9000 X67.546 Y110.538
M204 S500
G1 F2400 E315.81696
G1 F1350 X103.941 Y146.933 E319.92554
M204 S2000
G1 F2400 E319.12554
G0 F9000 X102.938 Y148.193
M204 S500
G1 F2400 E319.92554
G1 F1350 X67.546 Y112.801 E323.92089
M204 S2000
G1 F2400 E323.12089
G0 F9000 X67.546 Y115.063
M204 S500
G1 F2400 E323.92089
G1 F1350 X101.67 Y149.188 E327.77316
M204 S2000
G1 F2400 E326.97316
G0 F9000 X99.86 Y149.64
M204 S500
G1 F2400 E327.77316
G1 F1350 X67.545 Y117.325 E331.42116
M204 S2000
G1 F2400 E330.62116
G0 F9000 X67.545 Y119.588
M204 S500
G1 F2400 E331.42116
G1 F1350 X97.609 Y149.652 E334.81504
M204 S2000
G1 F2400 E334.01504
G0 F9000 X95.346 Y149.652
M204 S500
G1 F2400 E334.81504
G1 F1350 X67.545 Y121.851 E337.95346
M204 S2000
G1 F2400 E337.15346
G0 F9000 X67.545 Y124.114
M204 S500
G1 F2400 E337.95346
G1 F1350 X93.084 Y149.652 E340.83647
M204 S2000
G1 F2400 E340.03647
G0 F9000 X90.821 Y149.652
M204 S500
G1 F2400 E340.83647
G1 F1350 X67.545 Y126.376 E343.46406
M204 S2000
G1 F2400 E342.66406
G0 F9000 X67.545 Y128.639
M204 S500
G1 F2400 E343.46406
G1 F1350 X88.558 Y149.652 E345.83619
M204 S2000
G1 F2400 E345.03619
G0 F9000 X86.295 Y149.652
M204 S500
G1 F2400 E345.83619
G1 F1350 X67.545 Y130.902 E347.95285
M204 S2000
G1 F2400 E347.15285
G0 F9000 X67.544 Y133.164
M204 S500
G1 F2400 E347.95285
G1 F1350 X84.033 Y149.652 E349.81422
M204 S2000
G1 F2400 E349.01422
G0 F9000 X81.77 Y149.652
M204 S500
G1 F2400 E349.81422
G1 F1350 X67.544 Y135.427 E351.42012
M204 S2000
G1 F2400 E350.62012
G0 F9000 X67.544 Y137.689
M204 S500
G1 F2400 E351.42012
G1 F1350 X79.507 Y149.652 E352.7706
M204 S2000
G1 F2400 E351.9706
G0 F9000 X77.244 Y149.652
M204 S500
G1 F2400 E352.7706
G1 F1350 X67.544 Y139.952 E353.86562
M204 S2000
G1 F2400 E353.06562
G0 F9000 X67.544 Y142.215
M204 S500
G1 F2400 E353.86562
G1 F1350 X74.982 Y149.652 E354.70523
M204 S2000
G1 F2400 E353.90523
G0 F9000 X72.719 Y149.652
M204 S500
G1 F2400 E354.70523
G1 F1350 X67.544 Y144.477 E355.28943
M204 S2000
G1 F2400 E354.48943
G0 F9000 X67.85 Y147.046
M204 S500
G1 F2400 E355.28943
G1 F1350 X70.124 Y149.32 E355.54614
M104 S200
M204 S2000
G1 F2400 E354.74614
G0 F300 X70.124 Y149.32 Z0.54
G0 F9000 X69.454 Y150.625
G0 X68.523 Y150.103
G0 X67.699 Y149.406
G0 X67.035 Y148.587
G0 X66.53 Y147.645
G0 X66.214 Y146.636
G0 X66.08 Y145.355
G0 X66.113 Y74.011
G0 X66.326 Y72.923
G0 X66.722 Y71.943
G0 X67.315 Y71.03
G0 X68.048 Y70.266
G0 X68.924 Y69.643
G0 X69.198 Y69.519
G0 X70.211 Y69.102
G0 X70.73 Y70.475
;TIME_ELAPSED:222.006496
;LAYER:-5
M204 S500
;TYPE:SUPPORT
G1 F2400 E355.54614
G1 F1350 X70.356 Y70.592 E355.58524
