;FLAVOR:Marlin
;TIME:8244
;Filament used: 7.77262m
;Layer height: 0.2
;MINX:29.105
;MINY:75.198
;MINZ:0.24
;MAXX:187.589
;MAXY:144.604
;MAXZ:5.49
;TARGET_MACHINE.NAME:Creality Ender-3 S1 Pro
;POSTPROCESSED
;  [PauseAtHeight]
;  [PauseAtHeight]
;  [PauseAtHeight]
;  [PauseAtHeight]
;  [PauseAtHeight]
;  [PauseAtHeight]
;  [PauseAtHeight]
;  [PauseAtHeight]
;Generated with Cura_SteamEngine 5.10.0
; Ender 3 S1 Pro Start G-code
; M413 S0 ; Disable power loss recovery
G92 E0 ; Reset Extruder

; Prep surfaces before auto home for better accuracy
M140 S60
M104 S200

G28 ; Home all axes
G1 Z10.0 F3000 ; Move Z Axis up little to prevent scratching of Heat Bed
G1 X0 Y0

M190 S60
M109 S200

G1 X0.1 Y20 Z0.3 F5000.0 ; Move to start position
G1 X0.1 Y200.0 Z0.3 F1500.0 E15 ; Draw the first line
G1 X0.4 Y200.0 Z0.3 F5000.0 ; Move to side a little
G1 X0.4 Y20 Z0.3 F1500.0 E30 ; Draw the second line
G92 E0 ; Reset Extruder
G1 Z2.0 F3000 ; Move Z Axis up little to prevent scratching of Heat Bed
G1 X5 Y20 Z0.3 F5000.0 ; Move over to prevent blob squish

M82 ;absolute extrusion mode
G92 E0
G92 E0
G1 F2400 E-0.8
;LAYER_COUNT:22
;LAYER:-6
M107
M204 S2000
G0 F9000 X33.648 Y76.775 Z0.24
M204 S500
;TYPE:SUPPORT-INTERFACE
G1 F2400 E0
G1 F1350 X33.655 Y76.78 E0.00069
G1 X34.19 Y76.582 E0.04622
G1 X34.525 Y76.471 E0.07439
G1 X34.543 Y76.486 E0.07626
G1 X35.437 Y76.178 E0.15174
G1 X35.873 Y75.97 E0.19031
G1 X36.002 Y75.898 E0.2021
G1 X36.458 Y75.691 E0.24207
G1 X36.954 Y75.538 E0.28351
G1 X37.317 Y75.474 E0.31293
G1 X37.327 Y75.462 E0.31418
G1 X38.102 Y75.396 E0.37626
G1 X43.994 Y75.396 E0.84659
G1 X44.333 Y75.412 E0.87368
G1 X44.348 Y75.4 E0.87521
G1 X44.8 Y75.459 E0.9116
G1 X45.29 Y75.563 E0.95158
G1 X45.651 Y75.684 E0.98198
G1 X45.925 Y75.792 E1.00549
G1 X46.181 Y75.913 E1.02809
G1 X46.438 Y76.056 E1.05157
G1 X46.653 Y76.194 E1.07196
G1 X46.916 Y76.387 E1.098
G1 X47.126 Y76.564 E1.11992
G1 X47.438 Y76.856 E1.15403
G1 X47.934 Y77.274 E1.20581
G1 X48.544 Y77.662 E1.26352
G1 X49.162 Y77.952 E1.31801
G1 X49.823 Y78.166 E1.37347
G1 X50.422 Y78.278 E1.42212
G1 X51.096 Y78.328 E1.47607
G1 X181.846 Y78.328 E11.9131
G1 X182.181 Y78.344 E11.93987
G1 X182.194 Y78.332 E11.94128
G1 X182.65 Y78.395 E11.97803
G1 X183.14 Y78.499 E12.01801
G1 X183.504 Y78.617 E12.04856
G1 X183.772 Y78.724 E12.07159
G1 X184.029 Y78.845 E12.09427
G1 X184.286 Y78.988 E12.11774
G1 X184.508 Y79.13 E12.13878
G1 X184.751 Y79.31 E12.16292
G1 X184.962 Y79.488 E12.18495
G1 X185.302 Y79.807 E12.22217
G1 X185.577 Y80.146 E12.25701
G1 X185.739 Y80.375 E12.2794
G1 X185.963 Y80.728 E12.31278
G1 X186.229 Y81.311 E12.36393
G1 X186.378 Y81.799 E12.40466
G1 X186.453 Y82.178 E12.4355
G1 X186.524 Y82.947 E12.49715
G1 X186.524 Y136.997 E16.81165
G1 X186.489 Y137.636 E16.86273
G1 X186.409 Y138.063 E16.89741
G1 X186.331 Y138.355 E16.92154
G1 X186.235 Y138.655 E16.94668
G1 X186.129 Y138.919 E16.96939
G1 X186.003 Y139.186 E16.99296
G1 X185.868 Y139.435 E17.01557
G1 X185.719 Y139.663 E17.03731
G1 X185.54 Y139.905 E17.06134
G1 X185.363 Y140.12 E17.08357
G1 X185.165 Y140.332 E17.10672
G1 X184.934 Y140.544 E17.13175
G1 X184.704 Y140.73 E17.15536
G1 X184.476 Y140.895 E17.17783
G1 X184.113 Y141.121 E17.21196
G1 X183.537 Y141.381 E17.26241
G1 X183.045 Y141.534 E17.30354
G1 X182.679 Y141.597 E17.33318
G1 X182.67 Y141.609 E17.33438
G1 X181.894 Y141.676 E17.39655
G1 X51.115 Y141.68 E27.8359
G1 X50.423 Y141.724 E27.89125
G1 X49.772 Y141.85 E27.94418
G1 X49.097 Y142.074 E28.00095
G1 X48.488 Y142.369 E28.05496
G1 X47.95 Y142.716 E28.10607
G1 X47.556 Y143.062 E28.14792
G1 X47.47 Y143.116 E28.15603
G1 X47.089 Y143.462 E28.19711
G1 X46.871 Y143.643 E28.21973
G1 X46.624 Y143.819 E28.24394
G1 X46.272 Y144.041 E28.27716
G1 X45.688 Y144.305 E28.32832
G1 X45.194 Y144.462 E28.3697
G1 X44.834 Y144.521 E28.39882
G1 X44.824 Y144.533 E28.40006
G1 X44.045 Y144.604 E28.4625
G1 X38.156 Y144.604 E28.93259
G1 X37.814 Y144.584 E28.95994
G1 X37.801 Y144.597 E28.9614
G1 X37.342 Y144.537 E28.99836
G1 X36.942 Y144.456 E29.03093
G1 X36.489 Y144.31 E29.06893
G1 X36.25 Y144.219 E29.08934
G1 X35.367 Y143.796 E29.16749
G1 X34.894 Y143.633 E29.20743
G1 X34.124 Y143.396 E29.27174
G1 X33.873 Y143.304 E29.29308
G1 X33.636 Y143.202 E29.31368
G1 X33.322 Y143.039 E29.34192
G1 X32.909 Y142.783 E29.3807
G1 X32.634 Y142.569 E29.40852
G1 X32.269 Y142.238 E29.44785
G1 X31.658 Y141.624 E29.517
G1 X31.429 Y141.357 E29.54507
G1 X31.244 Y141.124 E29.56882
G1 X31.099 Y140.907 E29.58966
G1 X30.929 Y140.617 E29.61649
G1 X30.804 Y140.364 E29.63902
G1 X30.697 Y140.117 E29.6605
G1 X30.529 Y139.639 E29.70095
G1 X30.297 Y138.872 E29.76491
G1 X30.307 Y138.859 E29.76622
G1 X30.238 Y138.537 E29.79251
G1 X30.193 Y138.261 E29.81483
G1 X30.138 Y137.689 E29.8607
G1 X30.197 Y137.089 E29.90883
G1 X30.294 Y136.566 E29.95129
G1 X30.491 Y135.851 E30.01049
G1 X30.706 Y135.23 E30.06295
G1 X30.826 Y134.953 E30.08704
G1 X30.95 Y134.715 E30.10846
G1 X31.11 Y134.444 E30.13359
G1 X31.267 Y134.218 E30.15555
G1 X31.437 Y133.999 E30.17768
G1 X31.7 Y133.698 E30.20959
G1 X32.21 Y133.165 E30.26847
G1 X32.589 Y132.722 E30.31501
G1 X32.981 Y132.142 E30.37089
G1 X33.269 Y131.578 E30.42144
G1 X33.515 Y130.895 E30.47939
G1 X33.661 Y130.211 E30.53522
G1 X33.716 Y129.571 E30.5865
G1 X33.692 Y128.886 E30.64121
G1 X33.62 Y128.393 E30.68098
G1 X33.518 Y127.877 E30.72297
G1 X33.484 Y127.425 E30.75915
G1 X33.485 Y127.085 E30.78629
G1 X33.506 Y126.726 E30.815
G1 X33.65 Y125.971 E30.87635
G1 X33.754 Y125.62 E30.90557
G1 X34.048 Y124.722 E30.981
G1 X34.175 Y124.071 E31.03394
G1 X34.224 Y123.396 E31.08797
G1 X34.224 Y119.908 E31.3664
G1 X34.179 Y119.213 E31.42199
G1 X34.049 Y118.539 E31.47678
G1 X33.932 Y118.141 E31.5099
G1 X33.746 Y117.603 E31.55534
G1 X33.649 Y117.264 E31.58348
G1 X33.54 Y116.727 E31.62722
G1 X33.507 Y116.464 E31.64838
G1 X33.485 Y116.169 E31.67199
G1 X33.484 Y115.833 E31.69882
G1 X33.506 Y115.474 E31.72753
G1 X33.65 Y114.723 E31.78857
G1 X33.754 Y114.372 E31.81779
G1 X34.046 Y113.479 E31.89279
G1 X34.179 Y112.795 E31.94841
G1 X34.224 Y112.144 E32.0005
G1 X34.224 Y107.908 E32.33863
G1 X34.179 Y107.213 E32.39423
G1 X34.049 Y106.539 E32.44902
G1 X33.932 Y106.141 E32.48214
G1 X33.746 Y105.603 E32.52758
G1 X33.649 Y105.264 E32.55572
G1 X33.54 Y104.727 E32.59946
G1 X33.507 Y104.464 E32.62062
G1 X33.485 Y104.169 E32.64423
G1 X33.484 Y103.833 E32.67105
G1 X33.506 Y103.474 E32.69977
G1 X33.65 Y102.723 E32.76081
G1 X33.754 Y102.372 E32.79003
G1 X34.046 Y101.479 E32.86503
G1 X34.179 Y100.795 E32.92065
G1 X34.224 Y100.144 E32.97274
G1 X34.224 Y96.656 E33.25116
G1 X34.18 Y95.973 E33.3058
G1 X34.049 Y95.287 E33.36155
G1 X33.931 Y94.891 E33.39453
G1 X33.746 Y94.352 E33.44002
G1 X33.649 Y94.012 E33.46824
G1 X33.539 Y93.478 E33.51176
G1 X33.507 Y93.216 E33.53283
G1 X33.484 Y92.92 E33.55653
G1 X33.484 Y92.645 E33.57848
G1 X33.503 Y92.343 E33.60264
G1 X33.536 Y92.054 E33.62586
G1 X33.625 Y91.597 E33.66302
G1 X33.712 Y90.908 E33.71846
G1 X33.711 Y90.218 E33.77354
G1 X33.633 Y89.576 E33.82516
G1 X33.445 Y88.865 E33.88387
G1 X33.212 Y88.279 E33.93421
G1 X32.856 Y87.636 E33.99288
G1 X32.478 Y87.119 E34.044
G1 X32.161 Y86.767 E34.08181
G1 X31.659 Y86.26 E34.13876
G1 X31.429 Y85.993 E34.16689
G1 X31.244 Y85.76 E34.19064
G1 X31.099 Y85.543 E34.21148
G1 X30.929 Y85.254 E34.23824
G1 X30.697 Y84.753 E34.28231
G1 X30.529 Y84.272 E34.32298
G1 X30.296 Y83.503 E34.38712
G1 X30.307 Y83.49 E34.38848
G1 X30.238 Y83.175 E34.41422
G1 X30.197 Y82.902 E34.43626
G1 X30.139 Y82.33 E34.48215
G1 X30.197 Y81.725 E34.53067
G1 X30.287 Y81.182 E34.5746
G1 X30.541 Y80.329 E34.64565
G1 X30.705 Y79.867 E34.68478
G1 X30.826 Y79.588 E34.70906
G1 X30.95 Y79.347 E34.73069
G1 X31.109 Y79.081 E34.75543
G1 X31.268 Y78.852 E34.77768
G1 X31.437 Y78.631 E34.79989
G1 X31.698 Y78.336 E34.83133
G1 X32.257 Y77.758 E34.89552
G1 X32.533 Y77.501 E34.92562
G1 X32.746 Y77.324 E34.94773
G1 X32.96 Y77.169 E34.96882
G1 X33.353 Y76.925 E35.00575
G1 X33.648 Y76.775 E35.03217
M204 S2000
G0 F9000 X34.064 Y77.056
M204 S500
G1 F1350 X98.286 Y141.279 E42.28216
M204 S2000
G1 F2400 E41.48216
G0 F9000 X96.024 Y141.279
M204 S500
G1 F2400 E42.28216
G1 F1350 X32.668 Y77.922 E49.43439
M204 S2000
G1 F2400 E48.63439
G0 F9000 X31.586 Y79.104
M204 S500
G1 F2400 E49.43439
G1 F1350 X93.761 Y141.279 E56.45324
M204 S2000
G1 F2400 E55.65324
G0 F9000 X91.498 Y141.279
M204 S500
G1 F2400 E56.45324
G1 F1350 X30.864 Y80.644 E63.29818
M204 S2000
G1 F2400 E62.49818
G0 F9000 X30.569 Y82.612
M204 S500
G1 F2400 E63.29818
G1 F1350 X89.235 Y141.279 E69.92097
M204 S2000
G1 F2400 E69.12097
G0 F9000 X86.973 Y141.279
M204 S500
G1 F2400 E69.92097
G1 F1350 X33.284 Y87.589 E75.9819
M204 S2000
G1 F2400 E75.1819
G0 F9000 X34.112 Y90.68
M204 S500
G1 F2400 E75.9819
G1 F1350 X84.71 Y141.279 E81.6939
M204 S2000
G1 F2400 E80.8939
G0 F9000 X82.447 Y141.279
M204 S500
G1 F2400 E81.6939
G1 F1350 X33.88 Y92.711 E87.17662
M204 S2000
G1 F2400 E86.37662
G0 F9000 X34.517 Y95.611
M204 S500
G1 F2400 E87.17662
G1 F1350 X80.184 Y141.279 E92.33196
M204 S2000
G1 F2400 E91.53196
G0 F9000 X77.922 Y141.279
M204 S500
G1 F2400 E92.33196
G1 F1350 X34.623 Y97.98 E97.21992
M204 S2000
G1 F2400 E96.41992
G0 F9000 X34.619 Y100.238
M204 S500
G1 F2400 E97.21992
G1 F1350 X75.66 Y141.279 E101.85299
M204 S2000
G1 F2400 E101.05299
G0 F9000 X73.397 Y141.279
M204 S500
G1 F2400 E101.85299
G1 F1350 X34.252 Y102.135 E106.27196
M204 S2000
G1 F2400 E105.47196
G0 F9000 X33.884 Y104.029
M204 S500
G1 F2400 E106.27196
G1 F1350 X71.134 Y141.279 E110.47706
M204 S2000
G1 F2400 E109.67706
G0 F9000 X68.871 Y141.279
M204 S500
G1 F2400 E110.47706
G1 F1350 X34.534 Y106.941 E114.35337
M204 S2000
G1 F2400 E113.55337
G0 F9000 X34.623 Y109.293
M204 S500
G1 F2400 E114.35337
G1 F1350 X66.609 Y141.279 E117.96423
M204 S2000
G1 F2400 E117.16423
G0 F9000 X64.346 Y141.279
M204 S500
G1 F2400 E117.96423
G1 F1350 X34.623 Y111.556 E121.31962
M204 S2000
G1 F2400 E120.51962
G0 F9000 X34.422 Y113.618
M204 S500
G1 F2400 E121.31962
G1 F1350 X62.083 Y141.279 E124.44223
M204 S2000
G1 F2400 E123.64223
G0 F9000 X59.821 Y141.279
M204 S500
G1 F2400 E124.44223
G1 F1350 X33.93 Y115.389 E127.36497
M204 S2000
G1 F2400 E126.56497
G0 F9000 X34.318 Y118.039
M204 S500
G1 F2400 E127.36497
G1 F1350 X57.558 Y141.279 E129.9885
M204 S2000
G1 F2400 E129.1885
G0 F9000 X55.295 Y141.279
M204 S500
G1 F2400 E129.9885
G1 F1350 X34.623 Y120.608 E132.32208
M204 S2000
G1 F2400 E131.52208
G0 F9000 X34.623 Y122.87
M204 S500
G1 F2400 E132.32208
G1 F1350 X53.032 Y141.279 E134.40025
M204 S2000
G1 F2400 E133.60025
G0 F9000 X50.789 Y141.299
M204 S500
G1 F2400 E134.40025
G1 F1350 X34.404 Y124.914 E136.24993
M204 S2000
G1 F2400 E135.44993
G0 F9000 X33.92 Y126.692
M204 S500
G1 F2400 E136.24993
G1 F1350 X48.935 Y141.708 E137.94501
M204 S2000
G1 F2400 E137.14501
G0 F9000 X47.523 Y142.558
M204 S500
G1 F2400 E137.94501
G1 F1350 X34.099 Y129.134 E139.46043
M204 S2000
G1 F2400 E138.66043
G0 F9000 X33.849 Y131.147
M204 S500
G1 F2400 E139.46043
G1 F1350 X46.271 Y143.569 E140.86273
M204 S2000
G1 F2400 E140.06273
G0 F9000 X44.591 Y144.151
M204 S500
G1 F2400 E140.86273
G1 F1350 X33.107 Y132.667 E142.15914
M204 S2000
G1 F2400 E141.35914
G0 F9000 X32.068 Y133.891
M204 S500
G1 F2400 E142.15914
G1 F1350 X42.38 Y144.204 E143.32331
M204 S2000
G1 F2400 E142.52331
G0 F9000 X40.118 Y144.204
M204 S500
G1 F2400 E143.32331
G1 F1350 X31.142 Y135.229 E144.33654
M204 S2000
G1 F2400 E143.53654
G0 F9000 X30.625 Y136.974
M204 S500
G1 F2400 E144.33654
G1 F1350 X37.835 Y144.184 E145.15046
M204 S2000
G1 F2400 E144.35046
G0 F9000 X34.473 Y143.084
M204 S500
G1 F2400 E145.15046
G1 F1350 X30.912 Y139.523 E145.55246
M204 S2000
G1 F2400 E144.75246
G0 F9000 X29.334 Y139.343
G0 X29.105 Y138.031
G0 X29.108 Y81.939
G0 X29.324 Y80.698
G0 X29.87 Y79.123
G0 X30.432 Y78.192
G0 X31.528 Y76.981
G0 X32.405 Y76.264
G0 X33.212 Y75.839
G0 X35.021 Y75.198
G0 X35.744 Y76.474
M204 S500
G1 F2400 E145.55246
G1 F1350 X100.549 Y141.279 E152.86821
M204 S2000
G1 F2400 E152.06821
G0 F9000 X102.812 Y141.279
M204 S500
G1 F2400 E152.86821
G1 F1350 X37.393 Y75.859 E160.25333
M204 S2000
G1 F2400 E159.45333
G0 F9000 X39.592 Y75.796
M204 S500
G1 F2400 E160.25333
G1 F1350 X105.074 Y141.278 E167.6455
M204 S2000
G1 F2400 E166.8455
G0 F9000 X107.337 Y141.278
M204 S500
G1 F2400 E167.6455
G1 F1350 X41.855 Y75.796 E175.03768
M204 S2000
G1 F2400 E174.23768
G0 F9000 X44.125 Y75.803
M204 S500
G1 F2400 E175.03768
G1 F1350 X109.599 Y141.278 E182.429
M204 S2000
G1 F2400 E181.629
G0 F9000 X111.862 Y141.278
M204 S500
G1 F2400 E182.429
G1 F1350 X48.812 Y78.228 E189.54663
M204 S2000
G1 F2400 E188.74663
G0 F9000 X51.575 Y78.728
M204 S500
G1 F2400 E189.54663
G1 F1350 X114.125 Y141.278 E196.60782
M204 S2000
G1 F2400 E195.80782
G0 F9000 X116.388 Y141.278
M204 S500
G1 F2400 E196.60782
G1 F1350 X53.838 Y78.728 E203.669
M204 S2000
G1 F2400 E202.869
G0 F9000 X56.1 Y78.728
M204 S500
G1 F2400 E203.669
G1 F1350 X118.65 Y141.278 E210.73019
M204 S2000
G1 F2400 E209.93019
G0 F9000 X120.913 Y141.278
M204 S500
G1 F2400 E210.73019
G1 F1350 X58.363 Y78.728 E217.79137
M204 S2000
G1 F2400 E216.99137
G0 F9000 X60.626 Y78.728
M204 S500
G1 F2400 E217.79137
G1 F1350 X123.176 Y141.278 E224.85256
M204 S2000
G1 F2400 E224.05256
G0 F9000 X125.439 Y141.278
M204 S500
G1 F2400 E224.85256
G1 F1350 X62.889 Y78.728 E231.91374
M204 S2000
G1 F2400 E231.11374
G0 F9000 X65.151 Y78.728
M204 S500
G1 F2400 E231.91374
G1 F1350 X127.701 Y141.278 E238.97492
M204 S2000
G1 F2400 E238.17492
G0 F9000 X129.963 Y141.277
M204 S500
G1 F2400 E238.97492
G1 F1350 X67.414 Y78.728 E246.036
M204 S2000
G1 F2400 E245.236
G0 F9000 X69.677 Y78.728
M204 S500
G1 F2400 E246.036
G1 F1350 X132.226 Y141.277 E253.09707
M204 S2000
G1 F2400 E252.29707
G0 F9000 X134.489 Y141.277
M204 S500
G1 F2400 E253.09707
G1 F1350 X71.94 Y78.728 E260.15814
M204 S2000
G1 F2400 E259.35814
G0 F9000 X74.202 Y78.728
M204 S500
G1 F2400 E260.15814
G1 F1350 X136.752 Y141.277 E267.21927
M204 S2000
G1 F2400 E266.41927
G0 F9000 X139.014 Y141.277
M204 S500
G1 F2400 E267.21927
G1 F1350 X76.465 Y78.728 E274.28034
M204 S2000
G1 F2400 E273.48034
G0 F9000 X78.728 Y78.728
M204 S500
G1 F2400 E274.28034
G1 F1350 X141.277 Y141.277 E281.34141
M204 S2000
G1 F2400 E280.54141
G0 F9000 X143.54 Y141.277
M204 S500
G1 F2400 E281.34141
G1 F1350 X80.991 Y78.728 E288.40248
M204 S2000
G1 F2400 E287.60248
G0 F9000 X83.253 Y78.728
M204 S500
G1 F2400 E288.40248
G1 F1350 X145.803 Y141.277 E295.46361
M204 S2000
G1 F2400 E294.66361
G0 F9000 X148.065 Y141.277
M204 S500
G1 F2400 E295.46361
G1 F1350 X85.516 Y78.728 E302.52468
M204 S2000
G1 F2400 E301.72468
G0 F9000 X87.779 Y78.728
M204 S500
G1 F2400 E302.52468
G1 F1350 X150.328 Y141.277 E309.58575
M204 S2000
G1 F2400 E308.78575
G0 F9000 X152.591 Y141.277
M204 S500
G1 F2400 E309.58575
G1 F1350 X90.042 Y78.728 E316.64683
M204 S2000
G1 F2400 E315.84683
G0 F9000 X92.304 Y78.728
M204 S500
G1 F2400 E316.64683
G1 F1350 X154.854 Y141.277 E323.70795
M204 S2000
G1 F2400 E322.90795
G0 F9000 X157.116 Y141.276
M204 S500
G1 F2400 E323.70795
G1 F1350 X94.567 Y78.728 E330.76897
M204 S2000
G1 F2400 E329.96897
G0 F9000 X96.83 Y78.728
M204 S500
G1 F2400 E330.76897
G1 F1350 X159.378 Y141.276 E337.82993
M204 S2000
G1 F2400 E337.02993
G0 F9000 X161.641 Y141.276
M204 S500
G1 F2400 E337.82993
G1 F1350 X99.093 Y78.728 E344.89089
M204 S2000
G1 F2400 E344.09089
G0 F9000 X101.355 Y78.728
M204 S500
G1 F2400 E344.89089
G1 F1350 X163.904 Y141.276 E351.9519
M204 S2000
G1 F2400 E351.1519
G0 F9000 X166.167 Y141.276
M204 S500
G1 F2400 E351.9519
G1 F1350 X103.618 Y78.728 E359.01292
M204 S2000
G1 F2400 E358.21292
G0 F9000 X105.881 Y78.728
M204 S500
G1 F2400 E359.01292
G1 F1350 X168.429 Y141.276 E366.07388
M204 S2000
G1 F2400 E365.27388
G0 F9000 X170.692 Y141.276
M204 S500
G1 F2400 E366.07388
G1 F1350 X108.143 Y78.728 E373.13489
M204 S2000
G1 F2400 E372.33489
G0 F9000 X110.406 Y78.728
M204 S500
G1 F2400 E373.13489
G1 F1350 X172.955 Y141.276 E380.19591
M204 S2000
G1 F2400 E379.39591
G0 F9000 X175.218 Y141.276
M204 S500
G1 F2400 E380.19591
G1 F1350 X112.669 Y78.728 E387.25692
M204 S2000
G1 F2400 E386.45692
G0 F9000 X114.932 Y78.728
M204 S500
G1 F2400 E387.25692
