;FLAVOR:Marlin
;TIME:3531
;Filament used: 2.59635m
;Layer height: 0.2
;MINX:69
;MINY:79
;MINZ:0.2
;MAXX:151
;MAXY:141
;MAXZ:6
;Generated with Cura_SteamEngine 4.20.28-mb
;Extruder 0 Print Temperature:200
;Extruder 0 Standby Temperature:175
M140 S60
M105
M190 S60
M104 S200
M105
M109 S200
M82 ;absolute extrusion mode
; Ender 3 Custom Start G-code
G92 E0 ; Reset Extruder
G28 ; Home all axes
G1 Z2.0 F3000 ; Move Z Axis up little to prevent scratching of Heat Bed
G1 X0.1 Y20 Z0.3 F5000.0 ; Move to start position
G1 X0.1 Y200.0 Z0.3 F1500.0 E15 ; Draw the first line
G1 X0.4 Y200.0 Z0.3 F5000.0 ; Move to side a little
G1 X0.4 Y20 Z0.3 F1500.0 E30 ; Draw the second line
G92 E0 ; Reset Extruder
G1 Z2.0 F3000 ; Move Z Axis up little to prevent scratching of Heat Bed
G1 X5 Y20 Z0.3 F5000.0 ; Move over to prevent blob squish
G92 E0
G92 E0
G1 F1500 E-6.5
;LAYER_COUNT:30
;LAYER:0
M107
G0 F6000 X72.886 Y81.627 Z0.2
;TYPE:SKIRT
G1 F1500 E0
G1 F1200 X73.626 Y81.051 E0.03119
G1 X74.412 Y80.539 E0.06239
G1 X75.239 Y80.097 E0.09358
G1 X76.101 Y79.727 E0.12478
G1 X76.991 Y79.431 E0.15597
G1 X77.903 Y79.213 E0.18716
G1 X78.83 Y79.072 E0.21835
G1 X79.701 Y79.013 E0.24738
G1 X80.022 Y79.004 E0.25806
G1 X80.33 Y79 E0.26831
G1 X139.451 Y79.001 E2.23468
G1 X140.149 Y79.011 E2.2579
G1 X141.085 Y79.065 E2.28908
G1 X142.013 Y79.197 E2.32026
G1 X142.927 Y79.409 E2.35147
G1 X143.819 Y79.698 E2.38265
G1 X144.684 Y80.061 E2.41385
G1 X145.514 Y80.497 E2.44504
G1 X146.305 Y81.002 E2.47625
G1 X147.049 Y81.573 E2.50744
G1 X147.742 Y82.205 E2.53864
G1 X148.379 Y82.893 E2.56982
G1 X148.954 Y83.634 E2.60102
G1 X149.465 Y84.42 E2.6322
G1 X149.907 Y85.248 E2.66342
G1 X150.276 Y86.11 E2.6946
G1 X150.571 Y87 E2.72579
G1 X150.789 Y87.912 E2.75698
G1 X150.929 Y88.84 E2.78819
G1 X150.987 Y89.701 E2.81689
G1 X150.996 Y90.021 E2.82754
G1 X151 Y90.33 E2.83782
G1 X151 Y129.264 E4.13277
G1 X150.99 Y130.127 E4.16147
G1 X150.939 Y131.064 E4.19269
G1 X150.807 Y131.992 E4.22386
G1 X150.598 Y132.906 E4.25505
G1 X150.311 Y133.799 E4.28624
G1 X149.949 Y134.665 E4.31746
G1 X149.515 Y135.496 E4.34864
G1 X149.011 Y136.287 E4.37984
G1 X148.442 Y137.032 E4.41102
G1 X147.811 Y137.727 E4.44224
G1 X147.124 Y138.365 E4.47342
G1 X146.385 Y138.942 E4.50461
G1 X145.599 Y139.454 E4.53581
G1 X144.773 Y139.897 E4.56698
G1 X143.911 Y140.269 E4.59821
G1 X143.022 Y140.565 E4.62937
G1 X142.11 Y140.785 E4.66058
G1 X141.183 Y140.926 E4.69176
G1 X140.299 Y140.987 E4.72123
G1 X139.978 Y140.996 E4.73191
G1 X139.67 Y141 E4.74216
G1 X80.707 Y141 E6.70328
G1 X79.867 Y140.99 E6.73122
G1 X78.931 Y140.938 E6.7624
G1 X78.002 Y140.806 E6.79361
G1 X77.088 Y140.596 E6.8248
G1 X76.195 Y140.309 E6.856
G1 X75.33 Y139.946 E6.8872
G1 X74.499 Y139.512 E6.91838
G1 X73.708 Y139.008 E6.94957
G1 X72.963 Y138.438 E6.98077
G1 X72.269 Y137.807 E7.01197
G1 X71.632 Y137.12 E7.04313
G1 X71.055 Y136.38 E7.07434
G1 X70.543 Y135.594 E7.10554
G1 X70.1 Y134.767 E7.13674
G1 X69.729 Y133.906 E7.16793
G1 X69.433 Y133.016 E7.19912
G1 X69.214 Y132.104 E7.23032
G1 X69.073 Y131.177 E7.2615
G1 X69.013 Y130.288 E7.29114
G1 X69.004 Y129.955 E7.30222
G1 X69 Y129.658 E7.3121
G1 X69 Y90.674 E8.60871
G1 X69.01 Y89.86 E8.63579
G1 X69.063 Y88.924 E8.66697
G1 X69.195 Y87.995 E8.69818
G1 X69.406 Y87.081 E8.72938
G1 X69.694 Y86.189 E8.76055
G1 X70.057 Y85.324 E8.79175
G1 X70.492 Y84.493 E8.82295
G1 X70.996 Y83.703 E8.85412
G1 X71.566 Y82.958 E8.88532
G1 X72.198 Y82.264 E8.91654
G1 X72.886 Y81.627 E8.94772
G0 F6000 X73.274 Y81.823
G1 F1200 X74.01 Y81.27 E8.97834
G1 X74.791 Y80.782 E9.00897
G1 X75.611 Y80.364 E9.03958
G1 X76.465 Y80.019 E9.07022
G1 X77.345 Y79.749 E9.10083
G1 X78.245 Y79.557 E9.13144
G1 X79.159 Y79.443 E9.16208
G1 X79.712 Y79.413 E9.1805
G1 X80.033 Y79.404 E9.19118
G1 X80.33 Y79.4 E9.20106
G1 X139.445 Y79.401 E11.16723
G1 X140.143 Y79.411 E11.19045
G1 X141.062 Y79.464 E11.22106
G1 X141.973 Y79.597 E11.25169
G1 X142.869 Y79.808 E11.2823
G1 X143.743 Y80.096 E11.31291
G1 X144.59 Y80.459 E11.34356
G1 X145.401 Y80.894 E11.37417
G1 X146.171 Y81.398 E11.40478
G1 X146.895 Y81.967 E11.4354
G1 X147.567 Y82.597 E11.46604
G1 X148.182 Y83.282 E11.49666
G1 X148.735 Y84.018 E11.52728
G1 X149.222 Y84.799 E11.55789
G1 X149.639 Y85.62 E11.58852
G1 X149.984 Y86.474 E11.61915
G1 X150.253 Y87.354 E11.64976
G1 X150.445 Y88.255 E11.6804
G1 X150.558 Y89.168 E11.711
G1 X150.587 Y89.712 E11.72912
G1 X150.596 Y90.032 E11.73976
G1 X150.6 Y90.33 E11.74968
G1 X150.6 Y129.264 E13.04463
G1 X150.59 Y130.122 E13.07316
G1 X150.539 Y131.041 E13.10378
G1 X150.408 Y131.953 E13.13442
G1 X150.198 Y132.849 E13.16503
G1 X149.912 Y133.724 E13.19565
G1 X149.551 Y134.571 E13.22627
G1 X149.117 Y135.383 E13.25689
G1 X148.615 Y136.155 E13.28752
G1 X148.047 Y136.88 E13.31816
G1 X147.419 Y137.553 E13.34877
G1 X146.735 Y138.169 E13.37939
G1 X146 Y138.723 E13.41
G1 X145.22 Y139.212 E13.44062
G1 X144.4 Y139.631 E13.47125
G1 X143.547 Y139.977 E13.50186
G1 X142.667 Y140.248 E13.53249
G1 X141.767 Y140.441 E13.5631
G1 X140.853 Y140.556 E13.59374
G1 X140.288 Y140.587 E13.61256
G1 X139.967 Y140.596 E13.62324
G1 X139.67 Y140.6 E13.63312
G1 X80.707 Y140.6 E15.59424
G1 X79.872 Y140.59 E15.62201
G1 X78.953 Y140.538 E15.65263
G1 X78.042 Y140.407 E15.68324
G1 X77.146 Y140.197 E15.71385
G1 X76.271 Y139.91 E15.74448
G1 X75.424 Y139.548 E15.77511
G1 X74.612 Y139.114 E15.80574
G1 X73.841 Y138.612 E15.83634
G1 X73.116 Y138.044 E15.86697
G1 X72.443 Y137.415 E15.89761
G1 X71.828 Y136.731 E15.9282
G1 X71.274 Y135.996 E15.95881
G1 X70.786 Y135.215 E15.98944
G1 X70.367 Y134.395 E16.02007
G1 X70.021 Y133.542 E16.05069
G1 X69.751 Y132.662 E16.0813
G1 X69.558 Y131.761 E16.11195
G1 X69.444 Y130.848 E16.14255
G1 X69.413 Y130.277 E16.16157
G1 X69.404 Y129.944 E16.17265
G1 X69.4 Y129.658 E16.18217
G1 X69.4 Y90.674 E17.47878
G1 X69.41 Y89.866 E17.50565
G1 X69.462 Y88.946 E17.5363
G1 X69.594 Y88.035 E17.56692
G1 X69.805 Y87.139 E17.59754
G1 X70.092 Y86.264 E17.62816
G1 X70.455 Y85.418 E17.65878
G1 X70.889 Y84.606 E17.68941
G1 X71.392 Y83.835 E17.72002
G1 X71.961 Y83.111 E17.75065
G1 X72.589 Y82.439 E17.78124
G1 X73.274 Y81.823 E17.81188
G0 F6000 X73.662 Y82.024
G1 F1200 X74.394 Y81.494 E17.84194
G1 X75.169 Y81.031 E17.87197
G1 X75.982 Y80.638 E17.902
G1 X76.827 Y80.318 E17.93205
G1 X77.696 Y80.075 E17.96207
G1 X78.584 Y79.909 E17.99211
G1 X79.723 Y79.813 E18.03013
G1 X80.044 Y79.804 E18.04081
G1 X80.33 Y79.8 E18.05032
G1 X139.439 Y79.801 E20.0163
G1 X140.137 Y79.811 E20.03952
G1 X141.039 Y79.864 E20.06957
G1 X141.932 Y79.996 E20.09959
G1 X142.81 Y80.207 E20.12963
G1 X143.666 Y80.495 E20.15966
G1 X144.493 Y80.857 E20.18969
G1 X145.285 Y81.292 E20.21974
G1 X146.036 Y81.794 E20.24979
G1 X146.739 Y82.361 E20.27983
G1 X147.389 Y82.988 E20.30987
G1 X147.981 Y83.67 E20.3399
G1 X148.511 Y84.401 E20.36993
G1 X148.973 Y85.177 E20.39997
G1 X149.366 Y85.99 E20.43001
G1 X149.684 Y86.835 E20.46004
G1 X149.927 Y87.705 E20.49008
G1 X150.092 Y88.593 E20.52012
G1 X150.187 Y89.723 E20.55784
G1 X150.196 Y90.043 E20.56848
G1 X150.2 Y90.33 E20.57803
G1 X150.2 Y129.264 E21.87298
G1 X150.19 Y130.117 E21.90135
G1 X150.139 Y131.019 E21.9314
G1 X150.008 Y131.913 E21.96145
G1 X149.799 Y132.791 E21.99147
G1 X149.513 Y133.648 E22.02152
G1 X149.152 Y134.476 E22.05156
G1 X148.72 Y135.268 E22.08157
G1 X148.219 Y136.02 E22.11162
G1 X147.653 Y136.724 E22.14167
G1 X147.028 Y137.375 E22.17168
G1 X146.347 Y137.969 E22.20174
G1 X145.616 Y138.5 E22.23179
G1 X144.842 Y138.964 E22.26181
G1 X144.029 Y139.358 E22.29185
G1 X143.185 Y139.678 E22.32188
G1 X142.315 Y139.923 E22.35194
G1 X141.428 Y140.089 E22.38195
G1 X140.277 Y140.187 E22.42037
G1 X139.956 Y140.196 E22.43105
G1 X139.67 Y140.2 E22.44057
G1 X80.707 Y140.2 E24.40168
G1 X79.877 Y140.19 E24.42929
G1 X78.976 Y140.139 E24.45931
G1 X78.082 Y140.007 E24.48936
G1 X77.204 Y139.798 E24.51938
G1 X76.347 Y139.511 E24.54944
G1 X75.52 Y139.15 E24.57946
G1 X74.727 Y138.717 E24.60951
G1 X73.976 Y138.216 E24.63953
G1 X73.272 Y137.65 E24.66958
G1 X72.621 Y137.024 E24.69962
G1 X72.028 Y136.343 E24.72965
G1 X71.498 Y135.612 E24.75968
G1 X71.034 Y134.837 E24.78972
G1 X70.64 Y134.024 E24.81977
G1 X70.32 Y133.18 E24.84979
G1 X70.076 Y132.31 E24.87985
G1 X69.91 Y131.422 E24.90989
G1 X69.813 Y130.267 E24.94844
G1 X69.804 Y129.934 E24.95952
G1 X69.8 Y129.658 E24.9687
G1 X69.8 Y90.674 E26.26532
G1 X69.81 Y89.871 E26.29203
G1 X69.862 Y88.969 E26.32208
G1 X69.994 Y88.076 E26.3521
G1 X70.204 Y87.198 E26.38213
G1 X70.491 Y86.341 E26.41219
G1 X70.853 Y85.514 E26.44221
G1 X71.286 Y84.722 E26.47224
G1 X71.788 Y83.971 E26.50228
G1 X72.355 Y83.267 E26.53235
G1 X72.981 Y82.617 E26.56236
G1 X73.662 Y82.024 E26.59239
G1 F1500 E20.09239
;MESH:Holes.stl
G0 F6000 X128.697 Y100
G0 X127.168 Y100
G0 X127.754 Y101.63
G0 X129.142 Y102.64
G0 X129.187 Y102.502
;TYPE:WALL-INNER
G1 F1500 E26.59239
G1 F1200 X130.815 Y102.502 E26.64654
G1 X132.128 Y101.547 E26.70054
G1 X132.631 Y100 E26.75465
G1 X132.129 Y98.455 E26.80868
G1 X130.813 Y97.498 E26.8628
G1 X129.185 Y97.498 E26.91695
G1 X127.872 Y98.453 E26.97095
G1 X127.369 Y100 E27.02505
G1 X127.871 Y101.545 E27.07908
G1 X129.187 Y102.502 E27.1332
G0 F6000 X129.317 Y102.102
;TYPE:WALL-OUTER
G1 F1200 X130.685 Y102.102 E27.1787
G1 X131.788 Y101.3 E27.22406
G1 X132.21 Y100 E27.26952
G1 X131.789 Y98.702 E27.31491
G1 X130.683 Y97.898 E27.36038
G1 X129.315 Y97.898 E27.40588
G1 X128.212 Y98.7 E27.45124
G1 X127.79 Y100 E27.4967
G1 X128.211 Y101.298 E27.54209
G1 X129.317 Y102.102 E27.58757
G0 F6000 X129.181 Y102.52
G1 F1500 E21.08757
G0 F6000 X129.181 Y102.612
G0 X127.708 Y101.664
G0 X128.945 Y100.767
G0 X120.853 Y100.619
G0 X122.089 Y101.519
G0 X120.78 Y102.402
G0 X119.22 Y102.402
G0 X119.264 Y102.264
;TYPE:WALL-INNER
G1 F1500 E27.58757
G1 F1200 X120.736 Y102.264 E27.63653
G1 X121.926 Y101.4 E27.68544
G1 X122.381 Y100 E27.7344
G1 X121.926 Y98.6 E27.78336
G1 X120.736 Y97.736 E27.83227
G1 X119.264 Y97.736 E27.88123
G1 X118.074 Y98.6 E27.93014
G1 X117.619 Y100 E27.9791
G1 X118.074 Y101.4 E28.02807
G1 X119.264 Y102.264 E28.07698
G0 F6000 X119.394 Y101.864
;TYPE:WALL-OUTER
G1 F1200 X120.606 Y101.864 E28.11729
G1 X121.586 Y101.153 E28.15756
G1 X121.96 Y100 E28.19787
G1 X121.586 Y98.847 E28.23819
G1 X120.606 Y98.136 E28.27846
G1 X119.394 Y98.136 E28.31877
G1 X118.414 Y98.847 E28.35904
G1 X118.04 Y100 E28.39936
G1 X118.414 Y101.153 E28.43967
G1 X119.394 Y101.864 E28.47994
G0 F6000 X119.259 Y102.282
G1 F1500 E21.97994
G0 F6000 X119.259 Y102.374
G0 X117.911 Y101.519
G0 X119.147 Y100.619
G0 X110.721 Y100.49
G0 X109.351 Y100.473
G0 X100.523 Y100.334
G0 X99.552 Y100.324
G0 X90.246 Y100.178
G0 X91.482 Y101.079
G0 X90.566 Y101.64
G0 X90.501 Y101.551
;TYPE:WALL-INNER
G1 F1500 E28.47994
G1 F1200 X91.319 Y100.96 E28.51351
G1 X91.63 Y100 E28.54707
G1 X91.319 Y99.04 E28.58063
G1 X90.504 Y98.449 E28.61412
G1 X89.496 Y98.449 E28.64764
G1 X88.681 Y99.041 E28.68115
G1 X88.37 Y100 E28.71468
G1 X88.681 Y100.96 E28.74824
G1 X89.496 Y101.551 E28.78173
G1 X90.501 Y101.551 E28.81515
G0 F6000 X90.372 Y101.151
;TYPE:WALL-OUTER
G1 F1200 X90.979 Y100.712 E28.84007
G1 X91.21 Y100 E28.86497
G1 X90.979 Y99.287 E28.88989
G1 X90.374 Y98.849 E28.91474
G1 X89.626 Y98.849 E28.93961
G1 X89.021 Y99.288 E28.96448
G1 X88.79 Y100 E28.98937
G1 X89.021 Y100.713 E29.0143
G1 X89.626 Y101.151 E29.03914
G1 X90.372 Y101.151 E29.06396
G0 F6000 X90.507 Y101.569
G1 F1500 E22.56396
G0 F6000 X90.561 Y101.644
G0 X91.482 Y101.079
G0 X90.246 Y100.178
G0 X99.552 Y100.324
G0 X98.317 Y101.228
G0 X99.375 Y101.927
G0 X100.621 Y101.927
G0 X100.577 Y101.789
;TYPE:WALL-INNER
G1 F1500 E29.06396
G1 F1200 X101.521 Y101.107 E29.10269
G1 X101.881 Y100 E29.14141
G1 X101.52 Y98.891 E29.1802
G1 X100.581 Y98.211 E29.21876
G1 X99.423 Y98.211 E29.25727
G1 X98.479 Y98.893 E29.29601
G1 X98.119 Y100 E29.33472
G1 X98.48 Y101.109 E29.37351
G1 X99.419 Y101.789 E29.41207
G1 X100.577 Y101.789 E29.45059
G0 F6000 X100.448 Y101.389
;TYPE:WALL-OUTER
G1 F1200 X101.181 Y100.859 E29.48068
G1 X101.46 Y100 E29.51071
G1 X101.18 Y99.139 E29.54083
G1 X100.451 Y98.611 E29.57077
G1 X99.552 Y98.611 E29.60067
G1 X98.819 Y99.141 E29.63075
G1 X98.54 Y100 E29.66079
G1 X98.82 Y100.861 E29.69091
G1 X99.549 Y101.389 E29.72084
G1 X100.448 Y101.389 E29.75074
G0 F6000 X100.583 Y101.807
G1 F1500 E23.25074
G0 F6000 X100.637 Y101.882
G0 X101.684 Y101.226
G0 X100.448 Y100.326
G0 X109.351 Y100.473
G0 X108.113 Y101.371
G0 X109.296 Y102.165
G0 X109.341 Y102.027
;TYPE:WALL-INNER
G1 F1500 E29.75074
G1 F1200 X110.659 Y102.027 E29.79458
G1 X111.724 Y101.252 E29.83839
G1 X112.131 Y100 E29.88218
G1 X111.724 Y98.748 E29.92596
G1 X110.659 Y97.973 E29.96977
G1 X109.341 Y97.973 E30.01361
G1 X108.276 Y98.748 E30.05742
G1 X107.869 Y100 E30.1012
G1 X108.276 Y101.252 E30.14499
G1 X109.341 Y102.027 E30.1888
G0 F6000 X109.471 Y101.627
;TYPE:WALL-OUTER
G1 F1200 X110.529 Y101.627 E30.22399
G1 X111.384 Y101.005 E30.25915
G1 X111.71 Y100 E30.29429
G1 X111.384 Y98.995 E30.32944
G1 X110.529 Y98.373 E30.3646
G1 X109.471 Y98.373 E30.39979
G1 X108.616 Y98.995 E30.43496
G1 X108.29 Y100 E30.4701
G1 X108.616 Y101.005 E30.50524
G1 X109.471 Y101.627 E30.54041
G0 F6000 X109.335 Y102.045
G1 F1500 E24.04041
G0 F6000 X109.335 Y102.137
G0 X110.721 Y102.218
G0 X110.249 Y100.764
G0 X110.721 Y130.665
G0 X110.721 Y129.19
G0 X139.26 Y129.26
G0 X139.4 Y129.4
;TYPE:WALL-INNER
G1 F1500 E30.54041
G1 F1200 X80.6 Y129.4 E32.4961
G1 X80.6 Y90.6 E33.78659
G1 X139.4 Y90.6 E35.74229
G1 X139.4 Y129.4 E37.03278
G0 F6000 X139.8 Y129.8
;TYPE:WALL-OUTER
G1 F1200 X80.2 Y129.8 E39.01509
G1 X80.2 Y90.2 E40.33219
G1 X139.8 Y90.2 E42.31449
G1 X139.8 Y129.8 E43.63159
G0 F6000 X139.23 Y129.23
G0 X139.01 Y129.01
;TYPE:SKIN
G1 F1200 X80.99 Y129.01 E45.56135
G1 X80.99 Y90.99 E46.8259
G1 X139.01 Y90.99 E48.75565
G1 X139.01 Y129.01 E50.0202
G1 F1500 E43.5202
G0 F6000 X139.2 Y129.01
G0 X139.19 Y102.697
G0 X140.665 Y102.697
G0 X131.055 Y100.766
G0 X132.291 Y101.666
G0 X130.878 Y102.697
G0 X130.942 Y102.892
G1 F1500 E50.0202
G1 F1200 X129.06 Y102.892 E50.0828
G1 X127.539 Y101.786 E50.14535
G1 X126.959 Y100 E50.2078
G1 X127.54 Y98.212 E50.27033
G1 X129.058 Y97.108 E50.33276
G1 X130.94 Y97.108 E50.39536
G1 X132.461 Y98.214 E50.45791
G1 X133.041 Y100 E50.52036
G1 X132.46 Y101.788 E50.58289
G1 X130.942 Y102.892 E50.64532
G1 F1500 E44.14532
G0 F6000 X130.878 Y102.697
G0 X129.142 Y102.64
G0 X127.708 Y101.664
G0 X128.945 Y100.767
G0 X120.853 Y100.619
G0 X122.089 Y101.519
G0 X120.798 Y102.459
G0 X120.863 Y102.654
G1 F1500 E50.64532
G1 F1200 X119.137 Y102.654 E50.70273
G1 X117.742 Y101.641 E50.76007
G1 X117.209 Y100 E50.81746
G1 X117.742 Y98.359 E50.87484
G1 X119.137 Y97.346 E50.93218
G1 X120.863 Y97.346 E50.98959
G1 X122.258 Y98.359 E51.04693
G1 X122.791 Y100 E51.10432
G1 X122.258 Y101.641 E51.16171
G1 X120.863 Y102.654 E51.21905
G1 F1500 E44.71905
G0 F6000 X120.798 Y102.459
G0 X119.22 Y102.402
G0 X117.911 Y101.519
G0 X119.147 Y100.619
G0 X110.802 Y100
G0 X112.332 Y100
G0 X111.889 Y101.372
G0 X112.056 Y101.493
G1 F1500 E51.21905
G1 F1200 X110.786 Y102.417 E51.27128
G1 X109.214 Y102.417 E51.32357
G1 X107.944 Y101.493 E51.37581
G1 X107.459 Y100 E51.42802
G1 X107.944 Y98.507 E51.48023
G1 X109.214 Y97.583 E51.53247
G1 X110.786 Y97.583 E51.58475
G1 X112.056 Y98.507 E51.63699
G1 X112.541 Y100 E51.6892
G1 X112.056 Y101.493 E51.74141
G1 F1500 E45.24141
G0 F6000 X111.889 Y101.372
G0 X110.704 Y102.165
G0 X109.296 Y102.165
G0 X108.159 Y101.337
G0 X107.668 Y100
G0 X109.198 Y100
G0 X100.553 Y100
G0 X102.082 Y100
G0 X101.686 Y101.227
G0 X101.853 Y101.349
G1 F1500 E51.74141
G1 F1200 X100.703 Y102.179 E51.78858
G1 X99.292 Y102.179 E51.83551
G1 X98.148 Y101.351 E51.88248
G1 X97.709 Y100 E51.92973
G1 X98.147 Y98.651 E51.9769
G1 X99.297 Y97.821 E52.02407
G1 X100.708 Y97.821 E52.071
G1 X101.852 Y98.649 E52.11797
G1 X102.291 Y100 E52.16522
G1 X101.853 Y101.349 E52.2124
G1 F1500 E45.7124
G0 F6000 X101.686 Y101.227
G0 X100.621 Y101.927
G0 X99.375 Y101.927
G0 X98.363 Y101.194
G0 X97.918 Y100
G0 X99.447 Y100
G0 X90.303 Y100
G0 X91.831 Y100
G0 X91.484 Y101.08
G0 X91.651 Y101.202
G1 F1500 E52.2124
G1 F1200 X90.627 Y101.941 E52.2544
G1 X89.369 Y101.941 E52.29624
G1 X88.349 Y101.201 E52.33815
