;FLAVOR:Marlin
;TIME:12063
;Filament used: 9.15378m
;Layer height: 0.2
;MINX:76.922
;MINY:84.367
;MINZ:0.24
;MAXX:163.269
;MAXY:135.664
;MAXZ:75.09
;TARGET_MACHINE.NAME:Creality Ender-3 S1 Pro
;POSTPROCESSED
;  [PauseAtHeight]
;  [PauseAtHeight]
;  [PauseAtHeight]
;  [PauseAtHeight]
;  [PauseAtHeight]
;  [PauseAtHeight]
;  [PauseAtHeight]
;  [PauseAtHeight]
;Generated with Cura_SteamEngine 5.10.0
; Ender 3 S1 Pro Start G-code
; M413 S0 ; Disable power loss recovery
G92 E0 ; Reset Extruder

; Prep surfaces before auto home for better accuracy
M140 S60
M104 S200

G28 ; Home all axes
G1 Z10.0 F3000 ; Move Z Axis up little to prevent scratching of Heat Bed
G1 X0 Y0

M190 S60
M109 S200

G1 X0.1 Y20 Z0.3 F5000.0 ; Move to start position
G1 X0.1 Y200.0 Z0.3 F1500.0 E15 ; Draw the first line
G1 X0.4 Y200.0 Z0.3 F5000.0 ; Move to side a little
G1 X0.4 Y20 Z0.3 F1500.0 E30 ; Draw the second line
G92 E0 ; Reset Extruder
G1 Z2.0 F3000 ; Move Z Axis up little to prevent scratching of Heat Bed
G1 X5 Y20 Z0.3 F5000.0 ; Move over to prevent blob squish

M82 ;absolute extrusion mode
G92 E0
G92 E0
G1 F2400 E-0.8
;LAYER_COUNT:370
;LAYER:-6
M107
M204 S2000
G0 F9000 X79.449 Y90.934 Z0.24
M204 S500
;TYPE:SUPPORT-INTERFACE
G1 F2400 E0
G1 F1350 X79.804 Y90.642 E0.03669
G1 X80.039 Y90.473 E0.0598
G1 X80.281 Y90.323 E0.08253
G1 X81.195 Y89.828 E0.1655
G1 X81.752 Y89.428 E0.22024
G1 X82.412 Y88.822 E0.29176
G1 X82.744 Y88.547 E0.32617
G1 X83.123 Y88.31 E0.36185
G1 X83.642 Y88.026 E0.40908
G1 X84.356 Y87.803 E0.46879
G1 X84.801 Y87.734 E0.50474
G1 X85.471 Y87.673 E0.55844
G1 X99.484 Y87.676 E1.67702
G1 X99.888 Y87.7 E1.70932
G1 X100.661 Y87.692 E1.77103
G1 X101.004 Y87.672 E1.79846
G1 X114.267 Y87.672 E2.85717
G1 X114.968 Y87.625 E2.91325
G1 X115.608 Y87.503 E2.96526
G1 X116.278 Y87.282 E3.02157
G1 X116.892 Y86.989 E3.07588
G1 X117.657 Y86.471 E3.14963
G1 X118.039 Y86.186 E3.18767
G1 X118.4 Y85.959 E3.22171
G1 X118.982 Y85.695 E3.27273
G1 X119.478 Y85.542 E3.31416
G1 X119.841 Y85.478 E3.34358
G1 X119.851 Y85.466 E3.34483
G1 X120.626 Y85.4 E3.40692
G1 X157.522 Y85.4 E6.35212
G1 X157.863 Y85.416 E6.37937
G1 X157.876 Y85.404 E6.38078
G1 X158.332 Y85.463 E6.41748
G1 X158.818 Y85.567 E6.45716
G1 X159.182 Y85.688 E6.48777
G1 X159.452 Y85.796 E6.51099
G1 X159.709 Y85.917 E6.53366
G1 X159.966 Y86.06 E6.55714
G1 X160.188 Y86.202 E6.57818
G1 X160.431 Y86.382 E6.60231
G1 X160.642 Y86.56 E6.62435
G1 X160.981 Y86.878 E6.66145
G1 X161.257 Y87.218 E6.69641
G1 X161.419 Y87.447 E6.7188
G1 X161.638 Y87.793 E6.75149
G1 X161.905 Y88.384 E6.80326
G1 X162.058 Y88.867 E6.8437
G1 X162.121 Y89.24 E6.87389
G1 X162.134 Y89.249 E6.87516
G1 X162.203 Y90.015 E6.93655
G1 X162.2 Y129.916 E10.12162
G1 X162.162 Y130.594 E10.17583
G1 X162.081 Y131.004 E10.20919
G1 X162.015 Y131.263 E10.23052
G1 X161.911 Y131.575 E10.25677
G1 X161.808 Y131.836 E10.27917
G1 X161.676 Y132.116 E10.30388
G1 X161.541 Y132.357 E10.32593
G1 X161.386 Y132.596 E10.34867
G1 X161.124 Y132.953 E10.38402
G1 X160.819 Y133.274 E10.41937
G1 X160.606 Y133.469 E10.44242
G1 X160.379 Y133.655 E10.46584
G1 X160.169 Y133.807 E10.48654
G1 X159.899 Y133.973 E10.51184
G1 X159.387 Y134.249 E10.55827
G1 X158.723 Y134.457 E10.61381
G1 X158.362 Y134.517 E10.64302
G1 X158.352 Y134.529 E10.64427
G1 X157.573 Y134.6 E10.70671
G1 X120.68 Y134.6 E13.65167
G1 X120.338 Y134.58 E13.67901
G1 X120.325 Y134.593 E13.68048
G1 X119.866 Y134.533 E13.71743
G1 X119.466 Y134.452 E13.75001
G1 X119.014 Y134.306 E13.78793
G1 X118.77 Y134.212 E13.8088
G1 X118.516 Y134.092 E13.83122
G1 X118.237 Y133.936 E13.85674
G1 X118.019 Y133.797 E13.87738
G1 X117.178 Y133.177 E13.96078
G1 X116.542 Y132.828 E14.01869
G1 X115.942 Y132.594 E14.0701
G1 X115.321 Y132.426 E14.12145
G1 X114.638 Y132.339 E14.17641
G1 X114.275 Y132.324 E14.20541
G1 X100.812 Y132.32 E15.28009
G1 X100.408 Y132.296 E15.31239
G1 X99.633 Y132.308 E15.37427
G1 X99.294 Y132.324 E15.40136
G1 X85.518 Y132.324 E16.50102
G1 X85.183 Y132.308 E16.52779
G1 X85.169 Y132.321 E16.52931
G1 X84.71 Y132.261 E16.56626
G1 X84.309 Y132.18 E16.59892
G1 X83.855 Y132.034 E16.63699
G1 X83.617 Y131.941 E16.65738
G1 X83.36 Y131.816 E16.6802
G1 X83.078 Y131.662 E16.70585
G1 X82.859 Y131.525 E16.72647
G1 X82.593 Y131.326 E16.75298
G1 X82.393 Y131.16 E16.77373
G1 X81.834 Y130.636 E16.83489
G1 X81.24 Y130.194 E16.894
G1 X80.66 Y129.87 E16.94703
G1 X80.221 Y129.639 E16.98663
G1 X79.828 Y129.378 E17.02428
G1 X79.543 Y129.141 E17.05387
G1 X79.302 Y128.911 E17.08047
G1 X79.119 Y128.713 E17.10199
G1 X78.942 Y128.496 E17.12434
G1 X78.78 Y128.272 E17.14641
G1 X78.537 Y127.882 E17.18309
G1 X78.279 Y127.317 E17.23267
G1 X78.126 Y126.822 E17.27403
G1 X78.055 Y126.452 E17.3041
G1 X77.984 Y125.673 E17.36654
G1 X77.988 Y94.257 E19.8743
G1 X78.028 Y93.995 E19.89546
G1 X77.999 Y93.968 E19.89862
G1 X78.051 Y93.563 E19.93121
G1 X78.178 Y93.007 E19.97674
G1 X78.273 Y92.717 E20.0011
G1 X78.379 Y92.454 E20.02373
G1 X78.505 Y92.191 E20.04701
G1 X78.633 Y91.956 E20.06837
G1 X78.799 Y91.695 E20.09306
G1 X78.967 Y91.467 E20.11567
G1 X79.144 Y91.254 E20.13778
G1 X79.449 Y90.934 E20.17307
M204 S2000
G0 F9000 X79.828 Y91.142
M204 S500
G1 F1350 X122.886 Y134.2 E25.03383
M204 S2000
G1 F2400 E24.23383
G0 F9000 X125.149 Y134.2
M204 S500
G1 F2400 E25.03383
G1 F1350 X81.216 Y90.267 E29.99336
M204 S2000
G1 F2400 E29.19336
G0 F9000 X82.498 Y89.286
M204 S500
G1 F2400 E29.99336
G1 F1350 X127.411 Y134.2 E35.06359
M204 S2000
G1 F2400 E34.26359
G0 F9000 X129.674 Y134.2
M204 S500
G1 F2400 E35.06359
G1 F1350 X83.854 Y88.379 E40.2362
M204 S2000
G1 F2400 E39.4362
G0 F9000 X85.811 Y88.074
M204 S500
G1 F2400 E40.2362
G1 F1350 X131.937 Y134.2 E45.4433
M204 S2000
G1 F2400 E44.6433
G0 F9000 X134.2 Y134.2
M204 S500
G1 F2400 E45.4433
G1 F1350 X88.074 Y88.074 E50.6504
M204 S2000
G1 F2400 E49.8504
G0 F9000 X90.337 Y88.074
M204 S500
G1 F2400 E50.6504
G1 F1350 X136.462 Y134.2 E55.85745
M204 S2000
G1 F2400 E55.05745
G0 F9000 X138.725 Y134.2
M204 S500
G1 F2400 E55.85745
G1 F1350 X92.601 Y88.075 E61.06438
M204 S2000
G1 F2400 E60.26438
G0 F9000 X94.863 Y88.075
M204 S500
G1 F2400 E61.06438
G1 F1350 X140.988 Y134.2 E66.27137
M204 S2000
G1 F2400 E65.47137
G0 F9000 X143.251 Y134.2
M204 S500
G1 F2400 E66.27137
G1 F1350 X97.127 Y88.076 E71.47824
M204 S2000
G1 F2400 E70.67824
G0 F9000 X99.39 Y88.076
M204 S500
G1 F2400 E71.47824
G1 F1350 X145.513 Y134.2 E76.68506
M204 S2000
G1 F2400 E75.88506
G0 F9000 X147.776 Y134.2
M204 S500
G1 F2400 E76.68506
G1 F1350 X101.648 Y88.072 E81.89239
M204 S2000
G1 F2400 E81.09239
G0 F9000 X103.911 Y88.072
M204 S500
G1 F2400 E81.89239
G1 F1350 X150.039 Y134.2 E87.09972
M204 S2000
G1 F2400 E86.29972
G0 F9000 X152.302 Y134.2
M204 S500
G1 F2400 E87.09972
G1 F1350 X106.173 Y88.072 E92.3071
M204 S2000
G1 F2400 E91.5071
G0 F9000 X108.436 Y88.072
M204 S500
G1 F2400 E92.3071
G1 F1350 X154.564 Y134.2 E97.51443
M204 S2000
G1 F2400 E96.71443
G0 F9000 X156.827 Y134.2
M204 S500
G1 F2400 E97.51443
G1 F1350 X110.699 Y88.072 E102.72176
M204 S2000
G1 F2400 E101.92176
G0 F9000 X112.962 Y88.072
M204 S500
G1 F2400 E102.72176
G1 F1350 X158.878 Y133.988 E107.90515
M204 S2000
G1 F2400 E107.10515
G0 F9000 X160.33 Y133.177
M204 S500
G1 F2400 E107.90515
G1 F1350 X115.15 Y87.997 E113.00546
M204 S2000
G1 F2400 E112.20546
G0 F9000 X116.861 Y87.446
M204 S500
G1 F2400 E113.00546
G1 F1350 X161.329 Y131.914 E118.02539
M204 S2000
G1 F2400 E117.22539
G0 F9000 X161.789 Y130.11
M204 S500
G1 F2400 E118.02539
G1 F1350 X118.225 Y86.547 E122.94322
M204 S2000
G1 F2400 E122.14322
G0 F9000 X119.828 Y85.887
M204 S500
G1 F2400 E122.94322
G1 F1350 X161.801 Y127.86 E127.68149
M204 S2000
G1 F2400 E126.88149
G0 F9000 X161.801 Y125.597
M204 S500
G1 F2400 E127.68149
G1 F1350 X122.003 Y85.8 E132.17418
M204 S2000
G1 F2400 E131.37418
G0 F9000 X124.266 Y85.8
M204 S500
G1 F2400 E132.17418
G1 F1350 X161.801 Y123.334 E136.4114
M204 S2000
G1 F2400 E135.6114
G0 F9000 X161.801 Y121.072
M204 S500
G1 F2400 E136.4114
G1 F1350 X126.529 Y85.8 E140.3932
M204 S2000
G1 F2400 E139.5932
G0 F9000 X128.792 Y85.8
M204 S500
G1 F2400 E140.3932
G1 F1350 X161.802 Y118.809 E144.1196
M204 S2000
G1 F2400 E143.3196
G0 F9000 X161.802 Y116.547
M204 S500
G1 F2400 E144.1196
G1 F1350 X131.054 Y85.8 E147.59065
M204 S2000
G1 F2400 E146.79065
G0 F9000 X133.317 Y85.8
M204 S500
G1 F2400 E147.59065
G1 F1350 X161.802 Y114.284 E150.80622
M204 S2000
G1 F2400 E150.00622
G0 F9000 X161.802 Y112.021
M204 S500
G1 F2400 E150.80622
G1 F1350 X135.58 Y85.8 E153.76633
M204 S2000
G1 F2400 E152.96633
G0 F9000 X137.843 Y85.8
M204 S500
G1 F2400 E153.76633
G1 F1350 X161.802 Y109.759 E156.47103
M204 S2000
G1 F2400 E155.67103
G0 F9000 X161.802 Y107.496
M204 S500
G1 F2400 E156.47103
G1 F1350 X140.105 Y85.8 E158.92032
M204 S2000
G1 F2400 E158.12032
G0 F9000 X142.368 Y85.8
M204 S500
G1 F2400 E158.92032
G1 F1350 X161.802 Y105.234 E161.1142
M204 S2000
G1 F2400 E160.3142
G0 F9000 X161.802 Y102.971
M204 S500
G1 F2400 E161.1142
G1 F1350 X144.631 Y85.8 E163.05261
M204 S2000
G1 F2400 E162.25261
G0 F9000 X146.894 Y85.8
M204 S500
G1 F2400 E163.05261
G1 F1350 X161.802 Y100.708 E164.73555
M204 S2000
G1 F2400 E163.93555
G0 F9000 X161.803 Y98.446
M204 S500
G1 F2400 E164.73555
G1 F1350 X149.156 Y85.8 E166.1632
M204 S2000
G1 F2400 E165.3632
G0 F9000 X151.419 Y85.8
M204 S500
G1 F2400 E166.1632
G1 F1350 X161.803 Y96.183 E167.33538
M204 S2000
G1 F2400 E166.53538
G0 F9000 X161.803 Y93.921
M204 S500
G1 F2400 E167.33538
G1 F1350 X153.682 Y85.8 E168.25215
M204 S2000
G1 F2400 E167.45215
G0 F9000 X155.945 Y85.8
M204 S500
G1 F2400 E168.25215
G1 F1350 X161.803 Y91.658 E168.91345
M204 S2000
G1 F2400 E168.11345
G0 F9000 X161.74 Y89.332
M204 S500
G1 F2400 E168.91345
G1 F1350 X158.266 Y85.858 E169.30562
M204 S2000
G1 F2400 E168.50562
G0 F9000 X158.104 Y84.367
G0 X159.228 Y84.582
G0 X160.208 Y84.978
G0 X161.121 Y85.571
G0 X161.885 Y86.304
G0 X162.508 Y87.18
G0 X162.948 Y88.145
G0 X163.202 Y89.244
G0 X163.269 Y90.129
G0 X163.233 Y130.544
G0 X163.027 Y131.606
G0 X162.619 Y132.615
G0 X162.032 Y133.517
G0 X161.297 Y134.283
G0 X160.431 Y134.898
G0 X159.458 Y135.344
G0 X158.359 Y135.598
G0 X157.875 Y135.635
G0 X120.652 Y135.664
G0 X120.618 Y134.195
M204 S500
G1 F2400 E169.30562
G1 F1350 X78.84 Y92.416 E174.02194
M204 S2000
G1 F2400 E173.22194
G0 F9000 X78.396 Y94.235
M204 S500
G1 F2400 E174.02194
G1 F1350 X116.574 Y132.414 E178.33186
M204 S2000
G1 F2400 E177.53186
G0 F9000 X113.822 Y131.923
M204 S500
G1 F2400 E178.33186
G1 F1350 X78.388 Y96.49 E182.3319
M204 S2000
G1 F2400 E181.5319
G0 F9000 X78.388 Y98.752
M204 S500
G1 F2400 E182.3319
G1 F1350 X111.558 Y131.923 E186.07647
M204 S2000
G1 F2400 E185.27647
G0 F9000 X109.295 Y131.922
M204 S500
G1 F2400 E186.07647
G1 F1350 X78.387 Y101.014 E189.56563
M204 S2000
G1 F2400 E188.76563
G0 F9000 X78.386 Y103.276
M204 S500
G1 F2400 E189.56563
G1 F1350 X107.031 Y131.921 E192.79933
M204 S2000
G1 F2400 E191.99933
G0 F9000 X104.768 Y131.921
M204 S500
G1 F2400 E192.79933
G1 F1350 X78.386 Y105.539 E195.77756
M204 S2000
G1 F2400 E194.97756
G0 F9000 X78.386 Y107.801
M204 S500
G1 F2400 E195.77756
G1 F1350 X102.504 Y131.92 E198.50026
M204 S2000
G1 F2400 E197.70026
G0 F9000 X100.22 Y131.899
M204 S500
G1 F2400 E198.50026
G1 F1350 X78.386 Y110.064 E200.96513
M204 S2000
G1 F2400 E200.16513
G0 F9000 X78.385 Y112.326
M204 S500
G1 F2400 E200.96513
G1 F1350 X97.983 Y131.924 E203.17752
M204 S2000
G1 F2400 E202.37752
G0 F9000 X95.72 Y131.924
M204 S500
G1 F2400 E203.17752
G1 F1350 X78.385 Y114.589 E205.13445
M204 S2000
G1 F2400 E204.33445
G0 F9000 X78.384 Y116.851
M204 S500
G1 F2400 E205.13445
G1 F1350 X93.458 Y131.924 E206.83607
M204 S2000
G1 F2400 E206.03607
G0 F9000 X91.195 Y131.924
M204 S500
G1 F2400 E206.83607
G1 F1350 X78.384 Y119.114 E208.28223
M204 S2000
G1 F2400 E207.48223
G0 F9000 X78.383 Y121.376
M204 S500
G1 F2400 E208.28223
G1 F1350 X88.932 Y131.924 E209.47304
M204 S2000
G1 F2400 E208.67304
G0 F9000 X86.669 Y131.924
M204 S500
G1 F2400 E209.47304
G1 F1350 X78.383 Y123.638 E210.40843
M204 S2000
G1 F2400 E209.60843
G0 F9000 X78.41 Y125.927
M204 S500
G1 F2400 E210.40843
G1 F1350 X84.21 Y131.728 E211.06324
M104 S200
M204 S2000
G1 F2400 E210.26324
G0 F300 X84.21 Y131.728 Z0.54
G0 F9000 X83.55 Y133.056
G0 X82.536 Y132.582
G0 X78.83 Y129.933
G0 X78.073 Y129.113
G0 X77.519 Y128.215
G0 X77.128 Y127.19
G0 X76.934 Y125.866
G0 X76.956 Y93.754
G0 X77.168 Y92.673
G0 X77.564 Y91.693
G0 X78.157 Y90.78
G0 X78.751 Y90.161
G0 X79.416 Y89.611
G0 X80.39 Y90.73
;TIME_ELAPSED:137.115430
;LAYER:-5
M204 S500
;TYPE:SUPPORT
G1 F2400 E211.06324
G1 F1350 X79.004 Y92.116 E211.25882
G1 X78.857 Y92.382 E211.28915
G1 X78.744 Y92.62 E211.31544
G1 X78.599 Y92.987 E211.35481
G1 X78.497 Y93.376 E211.39494
G1 X78.446 Y93.64 E211.42177
G1 X78.383 Y94.151 E211.47314
G1 X84.314 Y88.22 E212.31007
G1 X84.859 Y88.129 E212.3652
G1 X85.485 Y88.073 E212.42791
G1 X85.875 Y88.073 E212.46683
G1 X78.386 Y95.562 E213.52361
G1 X78.386 Y96.976 E213.6647
G1 X87.29 Y88.073 E214.92108
G1 X88.703 Y88.074 E215.06207
G1 X78.386 Y98.39 E216.51784
G1 X78.386 Y99.805 E216.65903
G1 X90.117 Y88.074 E218.3144
G1 X91.531 Y88.074 E218.45549
G1 X78.386 Y101.219 E220.31039
G1 X78.386 Y102.633 E220.45148
G1 X92.944 Y88.075 E222.50577
G1 X94.358 Y88.075 E222.64686
G1 X78.386 Y104.047 E224.90068
G1 X78.386 Y105.461 E225.04177
G1 X95.772 Y88.076 E227.49505
G1 X97.185 Y88.077 E227.63604
G1 X78.386 Y106.876 E230.28878
G1 X78.386 Y108.29 E230.42987
G1 X98.6 Y88.077 E233.28221
G1 X99.481 Y88.077 E233.37012
G1 X99.99 Y88.101 E233.42097
G1 X78.386 Y109.704 E236.46945
G1 X78.386 Y111.118 E236.61054
G1 X101.432 Y88.072 E239.86258
G1 X102.847 Y88.072 E240.00377
G1 X78.386 Y112.533 E243.45548
G1 X78.386 Y113.947 E243.59657
G1 X104.261 Y88.072 E247.24781
G1 X105.675 Y88.072 E247.3889
G1 X78.386 Y115.361 E251.23968
G1 X78.386 Y116.775 E251.38077
G1 X107.089 Y88.072 E255.43107
G1 X108.503 Y88.072 E255.57216
G1 X78.386 Y118.189 E259.82199
G1 X78.386 Y119.604 E259.96318
G1 X109.918 Y88.072 E264.41269
G1 X111.332 Y88.072 E264.55378
G1 X78.386 Y121.018 E269.20281
G1 X78.386 Y122.432 E269.3439
G1 X112.746 Y88.072 E274.19247
G1 X114.16 Y88.072 E274.33356
G1 X78.386 Y123.846 E279.38166
G1 X78.386 Y125.26 E279.52275
G1 X115.78 Y87.867 E284.79937
G1 X116.451 Y87.646 E284.86986
G1 X117.116 Y87.324 E284.94359
G1 X117.924 Y86.775 E285.04106
G1 X118.059 Y86.666 E285.05837
G1 X118.27 Y86.515 E285.08426
G1 X118.605 Y86.306 E285.12366
G1 X118.884 Y86.177 E285.15433
G1 X78.474 Y126.587 E290.85662
G1 X78.634 Y127.1 E290.91024
G1 X78.726 Y127.336 E290.93551
G1 X78.859 Y127.617 E290.96653
G1 X120.676 Y85.8 E296.86736
G1 X122.09 Y85.8 E297.00845
G1 X79.429 Y128.46 E303.02831
G1 X79.599 Y128.644 E303.05331
G1 X79.89 Y128.919 E303.09326
G1 X80.174 Y129.13 E303.12856
G1 X123.504 Y85.8 E309.24289
G1 X124.918 Y85.8 E309.38398
G1 X81.073 Y129.644 E315.57091
G1 X81.481 Y129.873 E315.6176
G1 X81.926 Y130.206 E315.67305
G1 X126.332 Y85.8 E321.93922
G1 X127.747 Y85.8 E322.08041
G1 X82.664 Y130.882 E328.44204
G1 X83.176 Y131.261 E328.5056
G1 X83.512 Y131.448 E328.54397
G1 X129.161 Y85.8 E334.98546
G1 X130.575 Y85.8 E335.12655
G1 X84.537 Y131.837 E341.62294
G1 X85.064 Y131.901 E341.67591
G1 X85.522 Y131.927 E341.72169
G1 X85.862 Y131.927 E341.75561
G1 X131.989 Y85.8 E348.26463
G1 X133.403 Y85.8 E348.40572
G1 X87.276 Y131.927 E354.91474
G1 X88.69 Y131.927 E355.05583
G1 X134.818 Y85.8 E361.56491
G1 X136.232 Y85.8 E361.706
G1 X90.104 Y131.927 E368.21509
G1 X91.519 Y131.927 E368.35628
G1 X137.646 Y85.8 E374.8653
G1 X139.06 Y85.8 E375.00639
G1 X92.933 Y131.927 E381.51541
G1 X94.347 Y131.927 E381.6565
G1 X140.475 Y85.8 E388.16559
G1 X141.889 Y85.8 E388.30668
G1 X95.761 Y131.927 E394.81576
G1 X97.176 Y131.927 E394.95695
G1 X143.303 Y85.8 E401.46597
G1 X144.717 Y85.8 E401.60706
G1 X98.59 Y131.927 E408.11608
G1 X99.291 Y131.927 E408.18602
G1 X99.641 Y131.907 E408.221
G1 X100.028 Y131.903 E408.25962
G1 X146.131 Y85.8 E414.76525
G1 X147.546 Y85.8 E414.90644
G1 X101.422 Y131.923 E421.41497
G1 X102.836 Y131.923 E421.55606
G1 X148.96 Y85.8 E428.06458
G1 X150.374 Y85.8 E428.20567
G1 X104.249 Y131.924 E434.71433
G1 X105.663 Y131.925 E434.85542
G1 X151.788 Y85.8 E441.36416
