;FLAVOR:Marlin
;TIME:13204
;Filament used: 12.956m
;Layer height: 0.2
;MINX:76.123
;MINY:79.687
;MINZ:0.24
;MAXX:143.956
;MAXY:144.069
;MAXZ:98.09
;TARGET_MACHINE.NAME:Creality Ender-3 S1 Pro
;POSTPROCESSED
;  [PauseAtHeight]
;  [PauseAtHeight]
;  [PauseAtHeight]
;  [PauseAtHeight]
;  [PauseAtHeight]
;  [PauseAtHeight]
;  [PauseAtHeight]
;  [PauseAtHeight]
;Generated with Cura_SteamEngine 5.10.0
; Ender 3 S1 Pro Start G-code
; M413 S0 ; Disable power loss recovery
G92 E0 ; Reset Extruder

; Prep surfaces before auto home for better accuracy
M140 S60
M104 S200

G28 ; Home all axes
G1 Z10.0 F3000 ; Move Z Axis up little to prevent scratching of Heat Bed
G1 X0 Y0

M190 S60
M109 S200

G1 X0.1 Y20 Z0.3 F5000.0 ; Move to start position
G1 X0.1 Y200.0 Z0.3 F1500.0 E15 ; Draw the first line
G1 X0.4 Y200.0 Z0.3 F5000.0 ; Move to side a little
G1 X0.4 Y20 Z0.3 F1500.0 E30 ; Draw the second line
G92 E0 ; Reset Extruder
G1 Z2.0 F3000 ; Move Z Axis up little to prevent scratching of Heat Bed
G1 X5 Y20 Z0.3 F5000.0 ; Move over to prevent blob squish

M82 ;absolute extrusion mode
G92 E0
G92 E0
G1 F2400 E-0.8
;LAYER_COUNT:485
;LAYER:-6
M107
M204 S2000
G0 F9000 X89.379 Y84.919 Z0.24
M204 S500
;TYPE:SUPPORT-INTERFACE
G1 F2400 E0
G1 F1350 X90.974 Y83.241 E0.1848
G1 X91.24 Y82.994 E0.21378
G1 X91.507 Y82.775 E0.24134
G1 X91.729 Y82.618 E0.26305
G1 X91.942 Y82.486 E0.28305
G1 X92.219 Y82.334 E0.30827
G1 X92.501 Y82.207 E0.33296
G1 X93.016 Y82.017 E0.37678
G1 X95.217 Y81.401 E0.55922
G1 X95.704 Y81.294 E0.59902
G1 X96.005 Y81.25 E0.62331
G1 X96.283 Y81.228 E0.64557
G1 X96.565 Y81.225 E0.66808
G1 X96.816 Y81.236 E0.68813
G1 X97.164 Y81.276 E0.7161
G1 X97.757 Y81.387 E0.76425
G1 X99.884 Y81.982 E0.94056
G1 X100.548 Y82.214 E0.9967
G1 X100.998 Y82.437 E1.03679
G1 X101.411 Y82.703 E1.07601
G1 X101.65 Y82.891 E1.10028
G1 X102.116 Y83.311 E1.15036
G1 X103.63 Y84.908 E1.32602
G1 X104.389 Y85.799 E1.41945
G1 X104.866 Y86.236 E1.47109
G1 X105.45 Y86.655 E1.52846
G1 X106.01 Y86.957 E1.57925
G1 X106.683 Y87.218 E1.63687
G1 X107.34 Y87.376 E1.69081
G1 X108.01 Y87.454 E1.74465
G1 X108.419 Y87.46 E1.77731
G1 X109.828 Y87.42 E1.88982
G1 X110.488 Y87.363 E1.9427
G1 X111.183 Y87.211 E1.99949
G1 X111.842 Y86.972 E2.05545
G1 X112.44 Y86.668 E2.109
G1 X113.001 Y86.287 E2.16313
G1 X113.515 Y85.832 E2.21793
G1 X113.966 Y85.318 E2.27251
G1 X114.561 Y84.447 E2.35671
G1 X114.806 Y84.16 E2.38683
G1 X116.539 Y82.34 E2.58744
G1 X116.807 Y82.087 E2.61686
G1 X117.047 Y81.894 E2.64144
G1 X117.263 Y81.737 E2.66276
G1 X117.502 Y81.59 E2.68516
G1 X117.776 Y81.439 E2.71013
G1 X118.06 Y81.311 E2.735
G1 X118.572 Y81.121 E2.77859
G1 X120.824 Y80.489 E2.9653
G1 X121.307 Y80.387 E3.00471
G1 X121.613 Y80.342 E3.02939
G1 X121.89 Y80.32 E3.05158
G1 X122.176 Y80.313 E3.07441
G1 X122.436 Y80.324 E3.09519
G1 X122.744 Y80.36 E3.11994
G1 X123.461 Y80.506 E3.17835
G1 X125.561 Y81.096 E3.35247
G1 X125.919 Y81.209 E3.38244
G1 X126.309 Y81.369 E3.41608
G1 X126.594 Y81.513 E3.44157
G1 X126.831 Y81.648 E3.46335
G1 X127.06 Y81.804 E3.48546
G1 X127.323 Y82.008 E3.51203
G1 X127.74 Y82.383 E3.5568
G1 X129.318 Y84.048 E3.73991
G1 X129.67 Y84.461 E3.78323
G1 X129.842 Y84.696 E3.80648
G1 X129.996 Y84.934 E3.82911
G1 X130.246 Y85.385 E3.87027
G1 X130.239 Y85.395 E3.87124
G1 X130.357 Y85.679 E3.89579
G1 X130.454 Y85.961 E3.9196
G1 X131.081 Y88.107 E4.09806
G1 X131.202 Y88.62 E4.14014
G1 X131.246 Y88.915 E4.16394
G1 X131.279 Y89.23 E4.18923
G1 X131.272 Y89.747 E4.2305
G1 X131.232 Y90.116 E4.26013
G1 X131.114 Y90.731 E4.31011
G1 X130.462 Y93.047 E4.50217
G1 X130.31 Y93.479 E4.53873
G1 X130.318 Y93.489 E4.53975
G1 X130.141 Y93.846 E4.57156
G1 X129.879 Y94.463 E4.62507
G1 X129.694 Y95.106 E4.67848
G1 X129.592 Y95.787 E4.73344
G1 X129.576 Y96.501 E4.79045
G1 X129.654 Y97.193 E4.84604
G1 X129.811 Y97.845 E4.89957
G1 X130.04 Y98.458 E4.95181
G1 X130.383 Y99.099 E5.00984
G1 X130.76 Y99.633 E5.06202
G1 X131.21 Y100.128 E5.11542
G1 X131.756 Y100.593 E5.17267
G1 X132.337 Y100.967 E5.22782
G1 X132.921 Y101.25 E5.27963
G1 X133.587 Y101.475 E5.33574
G1 X134.338 Y101.62 E5.3968
G1 X134.449 Y101.629 E5.40569
G1 X135.166 Y101.774 E5.46408
G1 X137.196 Y102.342 E5.63235
G1 X137.865 Y102.574 E5.68887
G1 X138.313 Y102.797 E5.72882
G1 X138.722 Y103.062 E5.76772
G1 X138.961 Y103.251 E5.79204
G1 X139.428 Y103.671 E5.84218
G1 X140.946 Y105.272 E6.01829
G1 X141.308 Y105.695 E6.06273
G1 X141.616 Y106.15 E6.10659
G1 X141.866 Y106.605 E6.14803
G1 X141.859 Y106.615 E6.14901
G1 X141.99 Y106.927 E6.17602
G1 X142.118 Y107.301 E6.20757
G1 X142.745 Y109.458 E6.38688
G1 X142.737 Y109.468 E6.3879
G1 X142.807 Y109.777 E6.41319
G1 X142.858 Y110.09 E6.43851
G1 X142.88 Y110.348 E6.45918
G1 X142.891 Y110.666 E6.48458
G1 X142.88 Y110.928 E6.50551
G1 X142.84 Y111.28 E6.53379
G1 X142.722 Y111.912 E6.58511
G1 X142.086 Y114.167 E6.77213
G1 X141.95 Y114.551 E6.80465
G1 X141.84 Y114.812 E6.82726
G1 X141.668 Y115.155 E6.85789
G1 X141.398 Y115.567 E6.89721
G1 X141.221 Y115.795 E6.92025
G1 X140.97 Y116.088 E6.95105
G1 X139.367 Y117.694 E7.13218
G1 X139.016 Y118.015 E7.17015
G1 X138.773 Y118.207 E7.19487
G1 X138.524 Y118.372 E7.21871
G1 X138.246 Y118.535 E7.24444
G1 X137.858 Y118.725 E7.27892
G1 X137.51 Y118.862 E7.30878
G1 X137.11 Y118.988 E7.34225
G1 X135.092 Y119.551 E7.50949
G1 X134.478 Y119.683 E7.55962
G1 X134.001 Y119.72 E7.59781
G1 X133.1 Y119.736 E7.66975
G1 X132.447 Y119.825 E7.72235
G1 X131.74 Y120.025 E7.781
G1 X131.108 Y120.294 E7.83583
G1 X130.529 Y120.631 E7.88931
G1 X130.015 Y121.027 E7.9411
G1 X129.512 Y121.522 E7.99744
G1 X129.203 Y121.931 E8.03836
G1 X129.148 Y121.982 E8.04434
G1 X128.573 Y122.806 E8.12455
G1 X128.231 Y123.382 E8.17802
G1 X127.961 Y123.99 E8.23113
G1 X127.772 Y124.627 E8.28416
G1 X127.655 Y125.324 E8.34058
G1 X127.628 Y126.016 E8.39586
G1 X127.686 Y126.648 E8.44652
G1 X127.836 Y127.352 E8.50398
G1 X128.178 Y128.33 E8.58668
G1 X128.805 Y130.489 E8.76614
G1 X128.797 Y130.499 E8.76717
G1 X128.867 Y130.812 E8.79277
G1 X128.918 Y131.126 E8.81816
G1 X128.94 Y131.384 E8.83883
G1 X128.951 Y131.702 E8.86423
G1 X128.94 Y131.962 E8.885
G1 X128.903 Y132.313 E8.91318
G1 X128.786 Y132.936 E8.96378
G1 X128.146 Y135.202 E9.15174
G1 X128.011 Y135.584 E9.18408
G1 X127.815 Y136.033 E9.22318
G1 X127.624 Y136.355 E9.25307
G1 X127.466 Y136.595 E9.27601
G1 X127.286 Y136.83 E9.29963
G1 X127.031 Y137.123 E9.33064
G1 X125.427 Y138.73 E9.51188
G1 X125.081 Y139.046 E9.54929
G1 X124.831 Y139.241 E9.5746
G1 X124.586 Y139.409 E9.59831
G1 X124.306 Y139.571 E9.62413
G1 X123.924 Y139.76 E9.65815
G1 X123.573 Y139.893 E9.68812
G1 X123.17 Y140.02 E9.72184
G1 X121.152 Y140.583 E9.88908
G1 X120.538 Y140.715 E9.93921
G1 X120.068 Y140.751 E9.97684
G1 X119.568 Y140.74 E10.01676
G1 X119.378 Y140.718 E10.03203
G1 X118.676 Y140.684 E10.08813
G1 X118.026 Y140.732 E10.14016
G1 X117.33 Y140.873 E10.19685
G1 X116.677 Y141.097 E10.25195
G1 X116.096 Y141.38 E10.30354
G1 X115.582 Y141.699 E10.35183
G1 X115.174 Y141.921 E10.38891
G1 X114.744 Y142.1 E10.42609
G1 X114.352 Y142.229 E10.45903
G1 X112.252 Y142.815 E10.63306
G1 X111.56 Y142.963 E10.68955
G1 X111 Y143.011 E10.73442
G1 X110.61 Y142.993 E10.76558
G1 X110.252 Y142.948 E10.79438
G1 X109.615 Y142.823 E10.8462
G1 X107.764 Y142.283 E11.00012
G1 X107.121 Y142.137 E11.05275
G1 X106.425 Y142.072 E11.10855
G1 X105.737 Y142.096 E11.1635
G1 X104.958 Y142.21 E11.22635
G1 X104.485 Y142.247 E11.26422
G1 X104.098 Y142.229 E11.29514
G1 X103.731 Y142.184 E11.32466
G1 X103.087 Y142.058 E11.37704
G1 X101.067 Y141.467 E11.54505
G1 X100.555 Y141.287 E11.58837
G1 X100.305 Y141.178 E11.61014
G1 X100.034 Y141.037 E11.63452
G1 X99.764 Y140.878 E11.65954
G1 X99.529 Y140.716 E11.68232
G1 X99.317 Y140.552 E11.70371
G1 X99.027 Y140.293 E11.73475
G1 X97.359 Y138.628 E11.92288
G1 X97.008 Y138.24 E11.96465
G1 X96.83 Y138.007 E11.98805
G1 X96.683 Y137.787 E12.00917
G1 X96.514 Y137.499 E12.03583
G1 X96.007 Y136.472 E12.12725
G1 X95.625 Y135.913 E12.1813
G1 X95.176 Y135.401 E12.23566
G1 X94.684 Y134.97 E12.28787
G1 X94.089 Y134.565 E12.34532
G1 X93.493 Y134.263 E12.39866
G1 X92.882 Y134.042 E12.45052
G1 X92.156 Y133.882 E12.50987
G1 X90.985 Y133.813 E12.6035
G1 X90.618 Y133.768 E12.63302
G1 X90.079 Y133.672 E12.67672
G1 X87.929 Y133.047 E12.85545
G1 X87.311 Y132.821 E12.90797
G1 X86.91 Y132.617 E12.94389
G1 X86.68 Y132.478 E12.96534
G1 X86.43 Y132.309 E12.98943
G1 X86.21 Y132.133 E13.01192
G1 X85.922 Y131.88 E13.04252
G1 X84.263 Y130.225 E13.22957
G1 X83.916 Y129.835 E13.27124
G1 X83.732 Y129.6 E13.29507
G1 X83.587 Y129.386 E13.3157
G1 X83.416 Y129.092 E13.34285
G1 X83.3 Y128.864 E13.36327
G1 X83.064 Y128.275 E13.41392
G1 X82.412 Y126.041 E13.59969
G1 X82.325 Y125.644 E13.63213
G1 X82.274 Y125.334 E13.65721
G1 X82.252 Y125.075 E13.67796
G1 X82.241 Y124.779 E13.7016
G1 X82.276 Y123.762 E13.78283
G1 X82.21 Y123.074 E13.838
G1 X82.07 Y122.452 E13.8889
G1 X81.853 Y121.841 E13.94065
G1 X81.529 Y121.195 E13.99834
G1 X81.154 Y120.646 E14.05141
G1 X80.697 Y120.123 E14.10685
G1 X79.216 Y118.641 E14.2741
G1 X78.877 Y118.261 E14.31475
G1 X78.697 Y118.025 E14.33844
G1 X78.531 Y117.782 E14.36193
G1 X78.391 Y117.543 E14.38404
G1 X78.255 Y117.278 E14.40782
G1 X78.129 Y116.978 E14.43379
G1 X77.985 Y116.576 E14.46788
G1 X77.353 Y114.398 E14.64891
G1 X77.233 Y113.831 E14.69517
G1 X77.196 Y113.437 E14.72676
G1 X77.185 Y113.144 E14.75016
G1 X77.196 Y112.85 E14.77365
G1 X77.237 Y112.405 E14.80932
G1 X77.318 Y112.025 E14.84034
G1 X77.382 Y111.78 E14.86055
G1 X77.54 Y111.251 E14.90462
G1 X77.685 Y110.596 E14.95817
G1 X77.748 Y109.957 E15.00943
G1 X77.725 Y109.191 E15.0706
G1 X77.618 Y108.532 E15.12389
G1 X77.461 Y107.968 E15.17062
G1 X77.378 Y107.579 E15.20237
G1 X77.337 Y107.317 E15.22354
G1 X77.308 Y107.024 E15.24705
G1 X77.292 Y106.605 E15.28052
G1 X77.348 Y106.109 E15.32036
G1 X77.461 Y105.515 E15.36863
G1 X77.454 Y105.506 E15.36954
G1 X78.104 Y103.29 E15.55388
G1 X78.26 Y102.869 E15.58972
G1 X78.362 Y102.631 E15.61039
G1 X78.495 Y102.374 E15.63349
G1 X78.642 Y102.124 E15.65664
G1 X78.918 Y101.723 E15.6955
G1 X79.243 Y101.355 E15.73469
G1 X80.74 Y99.779 E15.9082
G1 X81.101 Y99.433 E15.94811
G1 X81.365 Y99.22 E15.97519
G1 X81.804 Y98.926 E16.01737
G1 X82.077 Y98.78 E16.04208
G1 X82.334 Y98.664 E16.06459
G1 X82.998 Y98.426 E16.12089
G1 X83.853 Y98.186 E16.19178
G1 X84.666 Y97.904 E16.26047
G1 X84.684 Y97.871 E16.26347
G1 X85.115 Y97.653 E16.30203
G1 X85.675 Y97.281 E16.35569
G1 X86.205 Y96.822 E16.41166
G1 X86.651 Y96.317 E16.46544
G1 X87.028 Y95.771 E16.5184
G1 X87.364 Y95.121 E16.57681
G1 X87.584 Y94.512 E16.6285
G1 X87.694 Y94.035 E16.66758
G1 X87.719 Y94.017 E16.67004
G1 X87.8 Y93.156 E16.73907
G1 X87.78 Y92.47 E16.79385
G1 X87.63 Y91.639 E16.86126
G1 X87.518 Y91.133 E16.90263
G1 X87.477 Y90.877 E16.92332
G1 X87.448 Y90.576 E16.94746
G1 X87.432 Y90.161 E16.98061
G1 X87.488 Y89.669 E17.02014
G1 X87.601 Y89.071 E17.06872
G1 X87.594 Y89.062 E17.06963
G1 X88.244 Y86.846 E17.25397
G1 X88.4 Y86.425 E17.28981
G1 X88.502 Y86.187 E17.31048
G1 X88.635 Y85.93 E17.33358
G1 X88.782 Y85.679 E17.3568
G1 X89.045 Y85.295 E17.39395
G1 X89.379 Y84.919 E17.4341
M204 S2000
G0 F9000 X89.694 Y85.168
M204 S500
G1 F1350 X127.828 Y123.302 E21.73899
M204 S2000
G1 F2400 E20.93899
G0 F9000 X128.705 Y121.917
M204 S500
G1 F2400 E21.73899
G1 F1350 X90.796 Y84.008 E26.01849
M204 S2000
G1 F2400 E25.21849
G0 F9000 X91.982 Y82.931
M204 S500
G1 F2400 E26.01849
G1 F1350 X129.768 Y120.717 E30.2841
M204 S2000
G1 F2400 E29.4841
G0 F9000 X131.153 Y119.839
M204 S500
G1 F2400 E30.2841
G1 F1350 X93.586 Y82.273 E34.52493
M204 S2000
G1 F2400 E33.72493
G0 F9000 X95.357 Y81.78
M204 S500
G1 F2400 E34.52493
G1 F1350 X132.929 Y119.353 E38.76644
M204 S2000
G1 F2400 E37.96644
G0 F9000 X135 Y119.161
M204 S500
G1 F2400 E38.76644
G1 F1350 X97.605 Y81.766 E42.98791
M204 S2000
G1 F2400 E42.18791
G0 F9000 X101.044 Y82.942
M204 S500
G1 F2400 E42.98791
G1 F1350 X103.644 Y85.542 E43.28142
M204 S2000
G1 F2400 E42.48142
G0 F9000 X104.749 Y86.647
M204 S500
G1 F2400 E43.28142
G1 F1350 X136.769 Y118.667 E46.89611
M204 S2000
G1 F2400 E46.09611
G0 F9000 X138.363 Y117.998
M204 S500
G1 F2400 E46.89611
G1 F1350 X108.222 Y87.857 E50.29869
M204 S2000
G1 F2400 E49.49869
G0 F9000 X110.398 Y87.771
M204 S500
G1 F2400 E50.29869
G1 F1350 X139.561 Y116.934 E53.59086
M204 S2000
G1 F2400 E52.79086
G0 F9000 X140.69 Y115.8
M204 S500
G1 F2400 E53.59086
G1 F1350 X112.151 Y87.261 E56.81259
M204 S2000
G1 F2400 E56.01259
G0 F9000 X113.518 Y86.365
M204 S500
G1 F2400 E56.81259
G1 F1350 X141.572 Y114.419 E59.97957
M204 S2000
G1 F2400 E59.17957
G0 F9000 X142.091 Y112.675
M204 S500
G1 F2400 E59.97957
G1 F1350 X114.564 Y85.148 E63.08705
M204 S2000
G1 F2400 E62.28705
G0 F9000 X115.592 Y83.914
M204 S500
G1 F2400 E63.08705
G1 F1350 X129.364 Y97.686 E64.64176
M204 S2000
G1 F2400 E63.84176
G0 F9000 X129.26 Y95.319
M204 S500
G1 F2400 E64.64176
G1 F1350 X116.696 Y82.755 E66.06009
M204 S2000
G1 F2400 E65.26009
G0 F9000 X117.987 Y81.783
M204 S500
G1 F2400 E66.06009
G1 F1350 X129.813 Y93.609 E67.39511
M204 S2000
G1 F2400 E66.59511
G0 F9000 X130.369 Y91.902
M204 S500
G1 F2400 E67.39511
G1 F1350 X119.69 Y81.223 E68.60065
M204 S2000
G1 F2400 E67.80065
G0 F9000 X121.494 Y80.764
M204 S500
G1 F2400 E68.60065
G1 F1350 X130.828 Y90.099 E69.65441
M204 S2000
G1 F2400 E68.85441
G0 F9000 X130.485 Y87.493
M204 S500
G1 F2400 E69.65441
G1 F1350 X124.091 Y81.099 E70.37622
M204 S2000
G1 F2400 E69.57622
G0 F9000 X124.486 Y79.687
G0 X126.456 Y80.276
G0 X127.413 Y80.759
G0 X128.404 Y81.548
G0 X130.513 Y83.808
G0 X131.099 Y84.732
G0 X131.506 Y85.751
G0 X132.251 Y88.434
G0 X133.842 Y100.441
G0 X133.551 Y101.872
M204 S500
G1 F2400 E70.37622
G1 F1350 X142.492 Y110.814 E71.38561
M204 S2000
G1 F2400 E70.58561
G0 F9000 X141.89 Y107.949
M204 S500
G1 F2400 E71.38561
G1 F1350 X136.505 Y102.564 E71.99352
M204 S2000
G1 F2400 E71.19352
G0 F9000 X136.899 Y101.155
G0 X138.453 Y101.679
G0 X139.346 Y102.199
G0 X140.225 Y102.963
G0 X142.154 Y105.05
G0 X142.722 Y105.953
G0 X143.131 Y106.982
G0 X143.857 Y109.592
G0 X143.956 Y110.686
G0 X143.786 Y112.029
G0 X142.953 Y114.92
G0 X142.463 Y115.896
G0 X141.642 Y116.93
G0 X139.637 Y118.884
G0 X138.912 Y119.367
G0 X128.804 Y124.892
G0 X127.299 Y125.036
M204 S500
G1 F2400 E71.99352
G1 F1350 X88.789 Y86.527 E76.3408
M204 S2000
G1 F2400 E75.5408
G0 F9000 X88.249 Y88.249
M204 S500
G1 F2400 E76.3408
G1 F1350 X127.45 Y127.45 E80.76615
M204 S2000
G1 F2400 E79.96615
G0 F9000 X128.431 Y130.694
M204 S500
G1 F2400 E80.76615
G1 F1350 X87.841 Y90.104 E85.3483
M204 S2000
G1 F2400 E84.5483
G0 F9000 X88.187 Y92.712
M204 S500
G1 F2400 E85.3483
G1 F1350 X128.379 Y132.905 E89.88557
M204 S2000
G1 F2400 E89.08557
G0 F9000 X127.88 Y134.668
M204 S500
G1 F2400 E89.88557
G1 F1350 X87.931 Y94.719 E94.39536
M204 S2000
G1 F2400 E93.59536
G0 F9000 X87.188 Y96.239
M204 S500
G1 F2400 E94.39536
G1 F1350 X127.209 Y136.259 E98.91322
M204 S2000
G1 F2400 E98.11322
G0 F9000 X126.138 Y137.452
M204 S500
G1 F2400 E98.91322
G1 F1350 X86.116 Y97.429 E103.43131
M204 S2000
G1 F2400 E102.63131
G0 F9000 X84.73 Y98.306
M204 S500
G1 F2400 E103.43131
G1 F1350 X125 Y138.577 E107.97739
M204 S2000
G1 F2400 E107.17739
G0 F9000 X123.611 Y139.451
M204 S500
G1 F2400 E107.97739
G1 F1350 X83.008 Y98.847 E112.56106
M204 S2000
G1 F2400 E111.76106
G0 F9000 X81.513 Y99.615
M204 S500
G1 F2400 E112.56106
G1 F1350 X121.866 Y139.968 E117.11646
M204 S2000
G1 F2400 E116.31646
G0 F9000 X119.984 Y140.349
M204 S500
G1 F2400 E117.11646
G1 F1350 X80.377 Y100.742 E121.58764
M204 S2000
G1 F2400 E120.78764
G0 F9000 X79.284 Y101.912
M204 S500
G1 F2400 E121.58764
G1 F1350 X117.752 Y140.38 E125.93024
M204 S2000
G1 F2400 E125.13024
G0 F9000 X116.062 Y140.952
M204 S500
G1 F2400 E125.93024
G1 F1350 X78.495 Y103.385 E130.17113
M204 S2000
G1 F2400 E129.37113
G0 F9000 X77.98 Y105.133
M204 S500
G1 F2400 E130.17113
G1 F1350 X114.58 Y141.733 E134.30285
M204 S2000
G1 F2400 E133.50285
G0 F9000 X112.824 Y142.239
M204 S500
G1 F2400 E134.30285
G1 F1350 X77.722 Y107.137 E138.26547
M204 S2000
G1 F2400 E137.46547
G0 F9000 X78.143 Y109.821
M204 S500
G1 F2400 E138.26547
G1 F1350 X110.928 Y142.606 E141.96652
M204 S2000
